; EXECUTABLE_BLOCK_START
M73 P0 R671
M201 X20000 Y20000 Z500 E5000
M203 X500 Y500 Z20 E30
M204 P20000 R5000 T20000
M205 X9.00 Y9.00 Z3.00 E2.50
M204 S10000
M106 S0
M106 P2 S0
; FEATURE: Custom
;===== machine: P1P ========================
;===== date: 202201114 =====================
;===== reset machine status =================
G91
M17 Z0.4 ; lower the z-motor current
G0 Z12 F300 ; lower the hotbed , to prevent the nozzle is below the hotbed
G0 Z-6;
G90
M17 X1.2 Y1.2 Z0.75 ; reset motor current to default
M960 S5 P1 ; turn on logo lamp
G90
M220 S100 ;Reset Feedrate
M221 S100 ;Reset Flowrate
M73.2   R1.0 ;Reset left time magnitude
M1002 set_gcode_claim_speed_level : 5
M221 X0 Y0 Z0 ; turn off soft endstop to prevent protential logic problem
G29.1 Z0.0 ; clear z-trim value first

;===== heatbed preheat ====================
M1002 gcode_claim_action : 2
M140 S65 ;set bed temp
M190 S65 ;wait for bed temp



;=============turn on fans to prevent PLA jamming=================

    
    M106 P3 S180
    ;Prevent PLA from jamming

M106 P2 S100 ; turn on big fan ,to cool down toolhead

;===== prepare print temperature and material ==========
M104 S210 ;set extruder temp
G91
G0 Z10 F1200
G90
G28 X
M975 S1 ; turn on 
G1 X60 F12000
M73 P0 R667
G1 Y245
G1 Y265 F3000
M620 M
M620 S0A   ; switch material if AMS exist
    M109 S210
    G1 X120 F12000

    G1 X20 Y50 F12000
    G1 Y-3
    T0
    G1 X54 F12000
    G1 Y265
    M400
M621 S0A

M412 S1 ; ===turn on filament runout detection===

M109 S250 ;set nozzle to common flush temp
M106 P1 S0
G92 E0
G1 E50 F200
M400
M104 S210
G92 E0
G1 E50 F200
M400
M106 P1 S255
G92 E0
G1 E5 F300
M109 S200 ; drop nozzle temp, make filament shink a bit
G92 E0
G1 E-0.5 F300

G1 X70 F9000
G1 X76 F15000
M73 P0 R666
G1 X65 F15000
G1 X76 F15000
G1 X65 F15000; shake to put down garbage
G1 X80 F6000
G1 X95 F15000
G1 X80 F15000
G1 X165 F15000; wipe and shake
M400
M106 P1 S0
;===== prepare print temperature and material end =====


;===== wipe nozzle ===============================
M1002 gcode_claim_action : 14
M975 S1
M106 S255
G1 X65 Y230 F18000
G1 Y264 F6000
M109 S200
G1 X100 F18000 ; first wipe mouth

G0 X135 Y253 F20000  ; move to exposed steel surface edge
G28 Z P0 T300; home z with low precision,permit 300deg temperature
G29.2 S0 ; turn off ABL
G0 Z5 F20000

G1 X60 Y265
G92 E0
G1 E-0.5 F300 ; retrack more
G1 X100 F5000; second wipe mouth
G1 X70 F15000
G1 X100 F5000
G1 X70 F15000
G1 X100 F5000
G1 X70 F15000
G1 X100 F5000
G1 X70 F15000
G1 X90 F5000
G0 X128 Y261 Z-1.5 F20000  ; move to exposed steel surface and stop the nozzle
M104 S140 ; set temp down to heatbed acceptable
M106 S255 ; turn on fan (G28 has turn off fan)

M221 S; push soft endstop status
M221 Z0 ;turn off Z axis endstop
G0 Z0.5 F20000
G0 X125 Y259.5 Z-1.01
G0 X131 F211
G0 X124
G0 Z0.5 F20000
G0 X125 Y262.5
G0 Z-1.01
G0 X131 F211
G0 X124
G0 Z0.5 F20000
G0 X125 Y260.0
G0 Z-1.01
G0 X131 F211
G0 X124
G0 Z0.5 F20000
G0 X125 Y262.0
G0 Z-1.01
G0 X131 F211
G0 X124
G0 Z0.5 F20000
G0 X125 Y260.5
G0 Z-1.01
G0 X131 F211
G0 X124
G0 Z0.5 F20000
G0 X125 Y261.5
G0 Z-1.01
G0 X131 F211
G0 X124
G0 Z0.5 F20000
G0 X125 Y261.0
G0 Z-1.01
G0 X131 F211
G0 X124
G0 X128
G2 I0.5 J0 F300
G2 I0.5 J0 F300
G2 I0.5 J0 F300
G2 I0.5 J0 F300

M109 S140 ; wait nozzle temp down to heatbed acceptable
G2 I0.5 J0 F3000
G2 I0.5 J0 F3000
G2 I0.5 J0 F3000
G2 I0.5 J0 F3000

M221 R; pop softend status
G1 Z10 F1200
M400
G1 Z10
G1 F30000
G1 X230 Y15
G29.2 S1 ; turn on ABL
;G28 ; home again after hard wipe mouth
M106 S0 ; turn off fan , too noisy
;===== wipe nozzle end ================================


;===== bed leveling ==================================
M1002 judge_flag g29_before_print_flag
M622 J1

    M1002 gcode_claim_action : 1
    G29 A X16.623 Y8.72735 I227.092 J238.828
    M400
    M500 ; save cali data

M623
;===== bed leveling end ================================

;===== home after wipe mouth============================
M1002 judge_flag g29_before_print_flag
M622 J0

    M1002 gcode_claim_action : 13
    G28

M623
;===== home after wipe mouth end =======================

M975 S1 ; turn on vibration supression


;=============turn on fans to prevent PLA jamming=================

    
    M106 P3 S180
    ;Prevent PLA from jamming

M106 P2 S100 ; turn on big fan ,to cool down toolhead


M104 S210 ; set extrude temp earlier, to reduce wait time

;===== mech mode fast check============================
G1 X128 Y128 Z10 F20000
M400 P200
M970.3 Q1 A7 B30 C80  H15 K0
M974 Q1 S2 P0

G1 X128 Y128 Z10 F20000
M400 P200
M970.3 Q0 A7 B30 C90 Q0 H15 K0
M974 Q0 S2 P0

M975 S1
G1 F30000
G1 X230 Y15
G28 X ; re-home XY 
;===== fmech mode fast check============================


;===== noozle load line ===============================
M975 S1
G90 
M83
T1000
G1 X18.0 Y1.0 Z0.8 F18000;Move to start position
M109 S210
G1 Z0.2
G0 E2 F300
G0 X240 E15 F2413.31 
G0 Y11 E0.700 F603.327
G0 X239.5
G0 E0.2
G0 Y1.5 E0.700
G0 X18 E15 F2413.31 
M400

;===== for Textured PEI Plate , lower the nozzle as the nozzle was touching topmost of the texture when homing ==
;curr_bed_type=Textured PEI Plate

G29.1 Z-0.04 ; for Textured PEI Plate

;========turn off light and wait extrude temperature =============
M1002 gcode_claim_action : 0
M106 S0 ; turn off fan
M106 P2 S0 ; turn off big fan 
M106 P3 S0 ; turn off chamber fan

M975 S1 ; turn on mech mode supression
G90
G21
M83 ; only support relative e
; filament start gcode
M106 P3 S255
M981 S1 P20000 ;open spaghetti detector
M106 S0
M106 P2 S0
; CHANGE_LAYER
; Z_HEIGHT: 0.2
; LAYER_HEIGHT: 0.2
G1 E-.8 F1800
M622.1 S1 ; for prev firware, default turned on
M1002 judge_flag timelapse_record_flag
M622 J1
 ; timelapse without wipe tower
M971 S11 C10 O0

M623
M204 S500
G1 X61.214 Y72.101 Z.4 F28800
G1 Z.2
G1 E.8 F1800



;Generating first layer
G1 E4.25
G1 E-1 F3000
G0 X50.000 Y99.592 E0.000000 F45000.0
G1 E1 F3000
G92 E0
G0 X51.571 Y99.465 E0.157307 F2250.0
G0 X53.102 Y99.088 E0.157307 F2250.0
G0 X54.552 Y98.470 E0.157307 F2250.0
G0 X55.885 Y97.627 E0.157307 F2250.0
G0 X57.065 Y96.582 E0.157307 F2250.0
G0 X58.062 Y95.361 E0.157307 F2250.0
G0 X58.850 Y93.995 E0.157307 F2250.0
G0 X59.409 Y92.521 E0.157307 F2250.0
G0 X59.724 Y90.977 E0.157307 F2250.0
G0 X59.788 Y89.401 E0.157307 F2250.0
G0 X59.598 Y87.836 E0.157307 F2250.0
G0 X59.159 Y86.322 E0.157307 F2250.0
G0 X58.484 Y84.898 E0.157307 F2250.0
G0 X57.588 Y83.601 E0.157307 F2250.0
G0 X56.496 Y82.464 E0.157307 F2250.0
G0 X55.236 Y81.517 E0.157307 F2250.0
G0 X53.840 Y80.784 E0.157307 F2250.0
G0 X52.344 Y80.285 E0.157307 F2250.0
G0 X50.788 Y80.032 E0.157307 F2250.0
G0 X49.212 Y80.032 E0.157307 F2250.0
G0 X47.656 Y80.285 E0.157307 F2250.0
G0 X46.160 Y80.784 E0.157307 F2250.0
G0 X44.764 Y81.517 E0.157307 F2250.0
G0 X43.504 Y82.464 E0.157307 F2250.0
G0 X42.412 Y83.601 E0.157307 F2250.0
G0 X41.516 Y84.898 E0.157307 F2250.0
G0 X40.841 Y86.322 E0.157307 F2250.0
G0 X40.402 Y87.836 E0.157307 F2250.0
G0 X40.212 Y89.401 E0.157307 F2250.0
G0 X40.276 Y90.977 E0.157307 F2250.0
G0 X40.591 Y92.521 E0.157307 F2250.0
G0 X41.150 Y93.995 E0.157307 F2250.0
G0 X41.938 Y95.361 E0.157307 F2250.0
G0 X42.935 Y96.582 E0.157307 F2250.0
G0 X44.115 Y97.627 E0.157307 F2250.0
G0 X45.448 Y98.470 E0.157307 F2250.0
G0 X46.898 Y99.088 E0.157307 F2250.0
G0 X48.429 Y99.465 E0.157307 F2250.0
G0 X50.000 Y99.592 E0.157307 F2250.0
G1 E-1 F3000
G0 X50.000 Y97.992 E0.000000 F45000.0
G1 E1 F3000
G92 E0
G0 X51.315 Y97.886 E0.131614 F2250.0
G0 X52.595 Y97.570 E0.131614 F2250.0
G0 X53.809 Y97.053 E0.131614 F2250.0
G0 X54.924 Y96.348 E0.131614 F2250.0
G0 X55.911 Y95.473 E0.131614 F2250.0
G0 X56.745 Y94.452 E0.131614 F2250.0
G0 X57.405 Y93.309 E0.131614 F2250.0
G0 X57.872 Y92.076 E0.131614 F2250.0
G0 X58.136 Y90.784 E0.131614 F2250.0
G0 X58.189 Y89.466 E0.131614 F2250.0
G0 X58.030 Y88.157 E0.131614 F2250.0
G0 X57.663 Y86.890 E0.131614 F2250.0
G0 X57.098 Y85.698 E0.131614 F2250.0
G0 X56.349 Y84.612 E0.131614 F2250.0
G0 X55.435 Y83.661 E0.131614 F2250.0
G0 X54.380 Y82.869 E0.131614 F2250.0
G0 X53.213 Y82.256 E0.131614 F2250.0
G0 X51.961 Y81.838 E0.131614 F2250.0
G0 X50.659 Y81.627 E0.131614 F2250.0
G0 X49.341 Y81.627 E0.131614 F2250.0
G0 X48.039 Y81.838 E0.131614 F2250.0
G0 X46.787 Y82.256 E0.131614 F2250.0
G0 X45.620 Y82.869 E0.131614 F2250.0
G0 X44.565 Y83.661 E0.131614 F2250.0
G0 X43.651 Y84.612 E0.131614 F2250.0
G0 X42.902 Y85.698 E0.131614 F2250.0
G0 X42.337 Y86.890 E0.131614 F2250.0
G0 X41.970 Y88.157 E0.131614 F2250.0
G0 X41.811 Y89.466 E0.131614 F2250.0
G0 X41.864 Y90.784 E0.131614 F2250.0
G0 X42.128 Y92.076 E0.131614 F2250.0
G0 X42.595 Y93.309 E0.131614 F2250.0
G0 X43.255 Y94.452 E0.131614 F2250.0
G0 X44.089 Y95.473 E0.131614 F2250.0
G0 X45.076 Y96.348 E0.131614 F2250.0
G0 X46.191 Y97.053 E0.131614 F2250.0
G0 X47.405 Y97.570 E0.131614 F2250.0
G0 X48.685 Y97.886 E0.131614 F2250.0
G0 X50.000 Y97.992 E0.131614 F2250.0
G1 E-1 F3000
G0 X50.000 Y96.392 E0.000000 F45000.0
G1 E1 F3000
G92 E0
G0 X51.058 Y96.306 E0.105920 F2250.0
G0 X52.089 Y96.052 E0.105920 F2250.0
G0 X53.065 Y95.636 E0.105920 F2250.0
G0 X53.962 Y95.069 E0.105920 F2250.0
G0 X54.757 Y94.365 E0.105920 F2250.0
G0 X55.428 Y93.543 E0.105920 F2250.0
G0 X55.959 Y92.624 E0.105920 F2250.0
G0 X56.335 Y91.631 E0.105920 F2250.0
G0 X56.548 Y90.591 E0.105920 F2250.0
G0 X56.591 Y89.530 E0.105920 F2250.0
G0 X56.463 Y88.477 E0.105920 F2250.0
G0 X56.167 Y87.457 E0.105920 F2250.0
G0 X55.712 Y86.498 E0.105920 F2250.0
G0 X55.109 Y85.624 E0.105920 F2250.0
G0 X54.374 Y84.859 E0.105920 F2250.0
G0 X53.525 Y84.221 E0.105920 F2250.0
G0 X52.585 Y83.728 E0.105920 F2250.0
G0 X51.579 Y83.392 E0.105920 F2250.0
G0 X50.531 Y83.221 E0.105920 F2250.0
G0 X49.469 Y83.221 E0.105920 F2250.0
G0 X48.421 Y83.392 E0.105920 F2250.0
G0 X47.415 Y83.728 E0.105920 F2250.0
G0 X46.475 Y84.221 E0.105920 F2250.0
G0 X45.626 Y84.859 E0.105920 F2250.0
G0 X44.891 Y85.624 E0.105920 F2250.0
G0 X44.288 Y86.498 E0.105920 F2250.0
G0 X43.833 Y87.457 E0.105920 F2250.0
G0 X43.537 Y88.477 E0.105920 F2250.0
G0 X43.409 Y89.530 E0.105920 F2250.0
G0 X43.452 Y90.591 E0.105920 F2250.0
G0 X43.665 Y91.631 E0.105920 F2250.0
G0 X44.041 Y92.624 E0.105920 F2250.0
G0 X44.572 Y93.543 E0.105920 F2250.0
G0 X45.243 Y94.365 E0.105920 F2250.0
G0 X46.038 Y95.069 E0.105920 F2250.0
G0 X46.935 Y95.636 E0.105920 F2250.0
G0 X47.911 Y96.052 E0.105920 F2250.0
G0 X48.942 Y96.306 E0.105920 F2250.0
G0 X50.000 Y96.392 E0.105920 F2250.0
G1 E-1 F3000
G0 X50.000 Y94.792 E0.000000 F45000.0
G1 E1 F3000
G92 E0
G0 X50.801 Y94.727 E0.080227 F2250.0
G0 X51.582 Y94.535 E0.080227 F2250.0
G0 X52.322 Y94.220 E0.080227 F2250.0
G0 X53.001 Y93.790 E0.080227 F2250.0
G0 X53.603 Y93.257 E0.080227 F2250.0
G0 X54.112 Y92.634 E0.080227 F2250.0
G0 X54.514 Y91.938 E0.080227 F2250.0
G0 X54.799 Y91.186 E0.080227 F2250.0
G0 X54.959 Y90.398 E0.080227 F2250.0
G0 X54.992 Y89.595 E0.080227 F2250.0
G0 X54.895 Y88.797 E0.080227 F2250.0
G0 X54.671 Y88.024 E0.080227 F2250.0
G0 X54.327 Y87.298 E0.080227 F2250.0
G0 X53.870 Y86.636 E0.080227 F2250.0
G0 X53.313 Y86.056 E0.080227 F2250.0
G0 X52.670 Y85.573 E0.080227 F2250.0
G0 X51.958 Y85.200 E0.080227 F2250.0
G0 X51.196 Y84.945 E0.080227 F2250.0
G0 X50.402 Y84.816 E0.080227 F2250.0
G0 X49.598 Y84.816 E0.080227 F2250.0
G0 X48.804 Y84.945 E0.080227 F2250.0
G0 X48.042 Y85.200 E0.080227 F2250.0
G0 X47.330 Y85.573 E0.080227 F2250.0
G0 X46.687 Y86.056 E0.080227 F2250.0
G0 X46.130 Y86.636 E0.080227 F2250.0
G0 X45.673 Y87.298 E0.080227 F2250.0
G0 X45.329 Y88.024 E0.080227 F2250.0
G0 X45.105 Y88.797 E0.080227 F2250.0
G0 X45.008 Y89.595 E0.080227 F2250.0
G0 X45.041 Y90.398 E0.080227 F2250.0
G0 X45.201 Y91.186 E0.080227 F2250.0
G0 X45.486 Y91.938 E0.080227 F2250.0
G0 X45.888 Y92.634 E0.080227 F2250.0
G0 X46.397 Y93.257 E0.080227 F2250.0
G0 X46.999 Y93.790 E0.080227 F2250.0
G0 X47.678 Y94.220 E0.080227 F2250.0
G0 X48.418 Y94.535 E0.080227 F2250.0
G0 X49.199 Y94.727 E0.080227 F2250.0
G0 X50.000 Y94.792 E0.080227 F2250.0
G1 E-1 F3000
G0 X50.000 Y93.192 E0.000000 F45000.0
G1 E1 F3000
G92 E0
G0 X50.545 Y93.148 E0.054533 F2250.0
G0 X51.075 Y93.017 E0.054533 F2250.0
G0 X51.578 Y92.803 E0.054533 F2250.0
G0 X52.040 Y92.511 E0.054533 F2250.0
G0 X52.449 Y92.148 E0.054533 F2250.0
G0 X52.795 Y91.725 E0.054533 F2250.0
G0 X53.068 Y91.252 E0.054533 F2250.0
G0 X53.262 Y90.741 E0.054533 F2250.0
G0 X53.371 Y90.205 E0.054533 F2250.0
G0 X53.393 Y89.659 E0.054533 F2250.0
G0 X53.327 Y89.117 E0.054533 F2250.0
G0 X53.175 Y88.592 E0.054533 F2250.0
G0 X52.941 Y88.098 E0.054533 F2250.0
G0 X52.630 Y87.648 E0.054533 F2250.0
G0 X52.252 Y87.254 E0.054533 F2250.0
G0 X51.815 Y86.926 E0.054533 F2250.0
G0 X51.331 Y86.672 E0.054533 F2250.0
G0 X50.813 Y86.499 E0.054533 F2250.0
G0 X50.273 Y86.411 E0.054533 F2250.0
G0 X49.727 Y86.411 E0.054533 F2250.0
G0 X49.187 Y86.499 E0.054533 F2250.0
G0 X48.669 Y86.672 E0.054533 F2250.0
G0 X48.185 Y86.926 E0.054533 F2250.0
G0 X47.748 Y87.254 E0.054533 F2250.0
G0 X47.370 Y87.648 E0.054533 F2250.0
G0 X47.059 Y88.098 E0.054533 F2250.0
G0 X46.825 Y88.592 E0.054533 F2250.0
G0 X46.673 Y89.117 E0.054533 F2250.0
G0 X46.607 Y89.659 E0.054533 F2250.0
G0 X46.629 Y90.205 E0.054533 F2250.0
G0 X46.738 Y90.741 E0.054533 F2250.0
G0 X46.932 Y91.252 E0.054533 F2250.0
G0 X47.205 Y91.725 E0.054533 F2250.0
G0 X47.551 Y92.148 E0.054533 F2250.0
G0 X47.960 Y92.511 E0.054533 F2250.0
G0 X48.422 Y92.803 E0.054533 F2250.0
G0 X48.925 Y93.017 E0.054533 F2250.0
G0 X49.455 Y93.148 E0.054533 F2250.0
G0 X50.000 Y93.192 E0.054533 F2250.0
G1 E-1 F3000
G0 X50.000 Y91.592 E0.000000 F45000.0
G1 E1 F3000
G92 E0
G0 X50.288 Y91.569 E0.028840 F2250.0
G0 X50.569 Y91.499 E0.028840 F2250.0
G0 X50.835 Y91.386 E0.028840 F2250.0
G0 X51.079 Y91.232 E0.028840 F2250.0
G0 X51.295 Y91.040 E0.028840 F2250.0
G0 X51.478 Y90.816 E0.028840 F2250.0
G0 X51.623 Y90.566 E0.028840 F2250.0
G0 X51.725 Y90.296 E0.028840 F2250.0
G0 X51.783 Y90.012 E0.028840 F2250.0
G0 X51.794 Y89.724 E0.028840 F2250.0
G0 X51.760 Y89.437 E0.028840 F2250.0
G0 X51.679 Y89.159 E0.028840 F2250.0
G0 X51.555 Y88.898 E0.028840 F2250.0
G0 X51.391 Y88.660 E0.028840 F2250.0
G0 X51.191 Y88.452 E0.028840 F2250.0
G0 X50.960 Y88.278 E0.028840 F2250.0
G0 X50.704 Y88.144 E0.028840 F2250.0
G0 X50.430 Y88.052 E0.028840 F2250.0
G0 X50.145 Y88.006 E0.028840 F2250.0
G0 X49.855 Y88.006 E0.028840 F2250.0
G0 X49.570 Y88.052 E0.028840 F2250.0
G0 X49.296 Y88.144 E0.028840 F2250.0
G0 X49.040 Y88.278 E0.028840 F2250.0
G0 X48.809 Y88.452 E0.028840 F2250.0
G0 X48.609 Y88.660 E0.028840 F2250.0
G0 X48.445 Y88.898 E0.028840 F2250.0
G0 X48.321 Y89.159 E0.028840 F2250.0
G0 X48.240 Y89.437 E0.028840 F2250.0
G0 X48.206 Y89.724 E0.028840 F2250.0
G0 X48.217 Y90.012 E0.028840 F2250.0
G0 X48.275 Y90.296 E0.028840 F2250.0
G0 X48.377 Y90.566 E0.028840 F2250.0
G0 X48.522 Y90.816 E0.028840 F2250.0
G0 X48.705 Y91.040 E0.028840 F2250.0
G0 X48.921 Y91.232 E0.028840 F2250.0
G0 X49.165 Y91.386 E0.028840 F2250.0
G0 X49.431 Y91.499 E0.028840 F2250.0
G0 X49.712 Y91.569 E0.028840 F2250.0
G0 X50.000 Y91.592 E0.028840 F2250.0
G1 Z0.600 F500
G1 Z0.600 F500
;Generating tower
M106 S255
G1 E-1 F3000
G0 X49.600 Y100.000 E0.000000 F45000.0
G1 E1 F3000
G92 E0
G0 X49.602 Y100.039 E0.003917 F2250.0
G0 X49.608 Y100.078 E0.003917 F2250.0
G0 X49.617 Y100.116 E0.003917 F2250.0
G0 X49.630 Y100.153 E0.003917 F2250.0
G0 X49.647 Y100.189 E0.003917 F2250.0
G0 X49.667 Y100.222 E0.003917 F2250.0
G0 X49.691 Y100.254 E0.003917 F2250.0
G0 X49.717 Y100.283 E0.003917 F2250.0
G0 X49.746 Y100.309 E0.003917 F2250.0
G0 X49.778 Y100.333 E0.003917 F2250.0
G0 X49.811 Y100.353 E0.003917 F2250.0
G0 X49.847 Y100.370 E0.003917 F2250.0
G0 X49.884 Y100.383 E0.003917 F2250.0
G0 X49.922 Y100.392 E0.003917 F2250.0
G0 X49.961 Y100.398 E0.003917 F2250.0
G0 X50.000 Y100.400 E0.003917 F2250.0
G0 X50.039 Y100.398 E0.003917 F2250.0
G0 X50.078 Y100.392 E0.003917 F2250.0
G0 X50.116 Y100.383 E0.003917 F2250.0
G0 X50.153 Y100.370 E0.003917 F2250.0
G0 X50.189 Y100.353 E0.003917 F2250.0
G0 X50.222 Y100.333 E0.003917 F2250.0
G0 X50.254 Y100.309 E0.003917 F2250.0
G0 X50.283 Y100.283 E0.003917 F2250.0
G0 X50.309 Y100.254 E0.003917 F2250.0
G0 X50.333 Y100.222 E0.003917 F2250.0
G0 X50.353 Y100.189 E0.003917 F2250.0
G0 X50.370 Y100.153 E0.003917 F2250.0
G0 X50.383 Y100.116 E0.003917 F2250.0
G0 X50.392 Y100.078 E0.003917 F2250.0
G0 X50.398 Y100.039 E0.003917 F2250.0
G0 X50.400 Y100.000 E0.003917 F2250.0
G0 X50.400 Y80.000 E1.995667 F2250.0
G0 X50.398 Y79.961 E0.003917 F2250.0
G0 X50.392 Y79.922 E0.003917 F2250.0
G0 X50.383 Y79.884 E0.003917 F2250.0
G0 X50.370 Y79.847 E0.003917 F2250.0
G0 X50.353 Y79.811 E0.003917 F2250.0
G0 X50.333 Y79.778 E0.003917 F2250.0
G0 X50.309 Y79.746 E0.003917 F2250.0
G0 X50.283 Y79.717 E0.003917 F2250.0
G0 X50.254 Y79.691 E0.003917 F2250.0
G0 X50.222 Y79.667 E0.003917 F2250.0
G0 X50.189 Y79.647 E0.003917 F2250.0
G0 X50.153 Y79.630 E0.003917 F2250.0
G0 X50.116 Y79.617 E0.003917 F2250.0
G0 X50.078 Y79.608 E0.003917 F2250.0
G0 X50.039 Y79.602 E0.003917 F2250.0
G0 X50.000 Y79.600 E0.003917 F2250.0
G0 X49.961 Y79.602 E0.003917 F2250.0
G0 X49.922 Y79.608 E0.003917 F2250.0
G0 X49.884 Y79.617 E0.003917 F2250.0
G0 X49.847 Y79.630 E0.003917 F2250.0
G0 X49.811 Y79.647 E0.003917 F2250.0
G0 X49.778 Y79.667 E0.003917 F2250.0
G0 X49.746 Y79.691 E0.003917 F2250.0
G0 X49.717 Y79.717 E0.003917 F2250.0
G0 X49.691 Y79.746 E0.003917 F2250.0
G0 X49.667 Y79.778 E0.003917 F2250.0
G0 X49.647 Y79.811 E0.003917 F2250.0
G0 X49.630 Y79.847 E0.003917 F2250.0
G0 X49.617 Y79.884 E0.003917 F2250.0
G0 X49.608 Y79.922 E0.003917 F2250.0
G0 X49.602 Y79.961 E0.003917 F2250.0
G0 X49.600 Y80.000 E0.003917 F2250.0
G0 X49.600 Y100.000 E1.995667 F2250.0
G1 Z0.600 F500
G1 E-1 F3000
G0 X49.600 Y100.000 E0.000000 F45000.0
G1 E1 F3000
G92 E0
G0 X49.602 Y100.039 E0.003917 F2250.0
G0 X49.608 Y100.078 E0.003917 F2250.0
G0 X49.617 Y100.116 E0.003917 F2250.0
G0 X49.630 Y100.153 E0.003917 F2250.0
G0 X49.647 Y100.189 E0.003917 F2250.0
G0 X49.667 Y100.222 E0.003917 F2250.0
G0 X49.691 Y100.254 E0.003917 F2250.0
G0 X49.717 Y100.283 E0.003917 F2250.0
G0 X49.746 Y100.309 E0.003917 F2250.0
G0 X49.778 Y100.333 E0.003917 F2250.0
G0 X49.811 Y100.353 E0.003917 F2250.0
G0 X49.847 Y100.370 E0.003917 F2250.0
G0 X49.884 Y100.383 E0.003917 F2250.0
G0 X49.922 Y100.392 E0.003917 F2250.0
G0 X49.961 Y100.398 E0.003917 F2250.0
G0 X50.000 Y100.400 E0.003917 F2250.0
G0 X50.039 Y100.398 E0.003917 F2250.0
G0 X50.078 Y100.392 E0.003917 F2250.0
G0 X50.116 Y100.383 E0.003917 F2250.0
G0 X50.153 Y100.370 E0.003917 F2250.0
G0 X50.189 Y100.353 E0.003917 F2250.0
G0 X50.222 Y100.333 E0.003917 F2250.0
G0 X50.254 Y100.309 E0.003917 F2250.0
G0 X50.283 Y100.283 E0.003917 F2250.0
G0 X50.309 Y100.254 E0.003917 F2250.0
G0 X50.333 Y100.222 E0.003917 F2250.0
G0 X50.353 Y100.189 E0.003917 F2250.0
G0 X50.370 Y100.153 E0.003917 F2250.0
G0 X50.383 Y100.116 E0.003917 F2250.0
G0 X50.392 Y100.078 E0.003917 F2250.0
G0 X50.398 Y100.039 E0.003917 F2250.0
G0 X50.400 Y100.000 E0.003917 F2250.0
G0 X50.400 Y80.000 E1.995667 F2250.0
G0 X50.398 Y79.961 E0.003917 F2250.0
G0 X50.392 Y79.922 E0.003917 F2250.0
G0 X50.383 Y79.884 E0.003917 F2250.0
G0 X50.370 Y79.847 E0.003917 F2250.0
G0 X50.353 Y79.811 E0.003917 F2250.0
G0 X50.333 Y79.778 E0.003917 F2250.0
G0 X50.309 Y79.746 E0.003917 F2250.0
G0 X50.283 Y79.717 E0.003917 F2250.0
G0 X50.254 Y79.691 E0.003917 F2250.0
G0 X50.222 Y79.667 E0.003917 F2250.0
G0 X50.189 Y79.647 E0.003917 F2250.0
G0 X50.153 Y79.630 E0.003917 F2250.0
G0 X50.116 Y79.617 E0.003917 F2250.0
G0 X50.078 Y79.608 E0.003917 F2250.0
G0 X50.039 Y79.602 E0.003917 F2250.0
G0 X50.000 Y79.600 E0.003917 F2250.0
G0 X49.961 Y79.602 E0.003917 F2250.0
G0 X49.922 Y79.608 E0.003917 F2250.0
G0 X49.884 Y79.617 E0.003917 F2250.0
G0 X49.847 Y79.630 E0.003917 F2250.0
G0 X49.811 Y79.647 E0.003917 F2250.0
G0 X49.778 Y79.667 E0.003917 F2250.0
G0 X49.746 Y79.691 E0.003917 F2250.0
G0 X49.717 Y79.717 E0.003917 F2250.0
G0 X49.691 Y79.746 E0.003917 F2250.0
G0 X49.667 Y79.778 E0.003917 F2250.0
G0 X49.647 Y79.811 E0.003917 F2250.0
G0 X49.630 Y79.847 E0.003917 F2250.0
G0 X49.617 Y79.884 E0.003917 F2250.0
G0 X49.608 Y79.922 E0.003917 F2250.0
G0 X49.602 Y79.961 E0.003917 F2250.0
G0 X49.600 Y80.000 E0.003917 F2250.0
G0 X49.600 Y100.000 E1.995667 F2250.0
G1 Z0.900 F500
G1 E-1 F3000
G0 X49.600 Y100.000 E0.000000 F45000.0
G1 E1 F3000
G92 E0
G0 X49.602 Y100.039 E0.003917 F2250.0
G0 X49.608 Y100.078 E0.003917 F2250.0
G0 X49.617 Y100.116 E0.003917 F2250.0
G0 X49.630 Y100.153 E0.003917 F2250.0
G0 X49.647 Y100.189 E0.003917 F2250.0
G0 X49.667 Y100.222 E0.003917 F2250.0
G0 X49.691 Y100.254 E0.003917 F2250.0
G0 X49.717 Y100.283 E0.003917 F2250.0
G0 X49.746 Y100.309 E0.003917 F2250.0
G0 X49.778 Y100.333 E0.003917 F2250.0
G0 X49.811 Y100.353 E0.003917 F2250.0
G0 X49.847 Y100.370 E0.003917 F2250.0
G0 X49.884 Y100.383 E0.003917 F2250.0
G0 X49.922 Y100.392 E0.003917 F2250.0
G0 X49.961 Y100.398 E0.003917 F2250.0
G0 X50.000 Y100.400 E0.003917 F2250.0
G0 X50.039 Y100.398 E0.003917 F2250.0
G0 X50.078 Y100.392 E0.003917 F2250.0
G0 X50.116 Y100.383 E0.003917 F2250.0
G0 X50.153 Y100.370 E0.003917 F2250.0
G0 X50.189 Y100.353 E0.003917 F2250.0
G0 X50.222 Y100.333 E0.003917 F2250.0
G0 X50.254 Y100.309 E0.003917 F2250.0
G0 X50.283 Y100.283 E0.003917 F2250.0
G0 X50.309 Y100.254 E0.003917 F2250.0
G0 X50.333 Y100.222 E0.003917 F2250.0
G0 X50.353 Y100.189 E0.003917 F2250.0
G0 X50.370 Y100.153 E0.003917 F2250.0
G0 X50.383 Y100.116 E0.003917 F2250.0
G0 X50.392 Y100.078 E0.003917 F2250.0
G0 X50.398 Y100.039 E0.003917 F2250.0
G0 X50.400 Y100.000 E0.003917 F2250.0
G0 X50.400 Y80.000 E1.995667 F2250.0
G0 X50.398 Y79.961 E0.003917 F2250.0
G0 X50.392 Y79.922 E0.003917 F2250.0
G0 X50.383 Y79.884 E0.003917 F2250.0
G0 X50.370 Y79.847 E0.003917 F2250.0
G0 X50.353 Y79.811 E0.003917 F2250.0
G0 X50.333 Y79.778 E0.003917 F2250.0
G0 X50.309 Y79.746 E0.003917 F2250.0
G0 X50.283 Y79.717 E0.003917 F2250.0
G0 X50.254 Y79.691 E0.003917 F2250.0
G0 X50.222 Y79.667 E0.003917 F2250.0
G0 X50.189 Y79.647 E0.003917 F2250.0
G0 X50.153 Y79.630 E0.003917 F2250.0
G0 X50.116 Y79.617 E0.003917 F2250.0
G0 X50.078 Y79.608 E0.003917 F2250.0
G0 X50.039 Y79.602 E0.003917 F2250.0
G0 X50.000 Y79.600 E0.003917 F2250.0
G0 X49.961 Y79.602 E0.003917 F2250.0
G0 X49.922 Y79.608 E0.003917 F2250.0
G0 X49.884 Y79.617 E0.003917 F2250.0
G0 X49.847 Y79.630 E0.003917 F2250.0
G0 X49.811 Y79.647 E0.003917 F2250.0
G0 X49.778 Y79.667 E0.003917 F2250.0
G0 X49.746 Y79.691 E0.003917 F2250.0
G0 X49.717 Y79.717 E0.003917 F2250.0
G0 X49.691 Y79.746 E0.003917 F2250.0
G0 X49.667 Y79.778 E0.003917 F2250.0
G0 X49.647 Y79.811 E0.003917 F2250.0
G0 X49.630 Y79.847 E0.003917 F2250.0
G0 X49.617 Y79.884 E0.003917 F2250.0
G0 X49.608 Y79.922 E0.003917 F2250.0
G0 X49.602 Y79.961 E0.003917 F2250.0
G0 X49.600 Y80.000 E0.003917 F2250.0
G0 X49.600 Y100.000 E1.995667 F2250.0
G1 Z1.200 F500
G1 E-1 F3000
G0 X49.600 Y100.000 E0.000000 F45000.0
G1 E1 F3000
G92 E0
G0 X49.602 Y100.039 E0.003917 F2250.0
G0 X49.608 Y100.078 E0.003917 F2250.0
G0 X49.617 Y100.116 E0.003917 F2250.0
G0 X49.630 Y100.153 E0.003917 F2250.0
G0 X49.647 Y100.189 E0.003917 F2250.0
G0 X49.667 Y100.222 E0.003917 F2250.0
G0 X49.691 Y100.254 E0.003917 F2250.0
G0 X49.717 Y100.283 E0.003917 F2250.0
G0 X49.746 Y100.309 E0.003917 F2250.0
G0 X49.778 Y100.333 E0.003917 F2250.0
G0 X49.811 Y100.353 E0.003917 F2250.0
G0 X49.847 Y100.370 E0.003917 F2250.0
G0 X49.884 Y100.383 E0.003917 F2250.0
G0 X49.922 Y100.392 E0.003917 F2250.0
G0 X49.961 Y100.398 E0.003917 F2250.0
G0 X50.000 Y100.400 E0.003917 F2250.0
G0 X50.039 Y100.398 E0.003917 F2250.0
G0 X50.078 Y100.392 E0.003917 F2250.0
G0 X50.116 Y100.383 E0.003917 F2250.0
G0 X50.153 Y100.370 E0.003917 F2250.0
G0 X50.189 Y100.353 E0.003917 F2250.0
G0 X50.222 Y100.333 E0.003917 F2250.0
G0 X50.254 Y100.309 E0.003917 F2250.0
G0 X50.283 Y100.283 E0.003917 F2250.0
G0 X50.309 Y100.254 E0.003917 F2250.0
G0 X50.333 Y100.222 E0.003917 F2250.0
G0 X50.353 Y100.189 E0.003917 F2250.0
G0 X50.370 Y100.153 E0.003917 F2250.0
G0 X50.383 Y100.116 E0.003917 F2250.0
G0 X50.392 Y100.078 E0.003917 F2250.0
G0 X50.398 Y100.039 E0.003917 F2250.0
G0 X50.400 Y100.000 E0.003917 F2250.0
G0 X50.400 Y80.000 E1.995667 F2250.0
G0 X50.398 Y79.961 E0.003917 F2250.0
G0 X50.392 Y79.922 E0.003917 F2250.0
G0 X50.383 Y79.884 E0.003917 F2250.0
G0 X50.370 Y79.847 E0.003917 F2250.0
G0 X50.353 Y79.811 E0.003917 F2250.0
G0 X50.333 Y79.778 E0.003917 F2250.0
G0 X50.309 Y79.746 E0.003917 F2250.0
G0 X50.283 Y79.717 E0.003917 F2250.0
G0 X50.254 Y79.691 E0.003917 F2250.0
G0 X50.222 Y79.667 E0.003917 F2250.0
G0 X50.189 Y79.647 E0.003917 F2250.0
G0 X50.153 Y79.630 E0.003917 F2250.0
G0 X50.116 Y79.617 E0.003917 F2250.0
G0 X50.078 Y79.608 E0.003917 F2250.0
G0 X50.039 Y79.602 E0.003917 F2250.0
G0 X50.000 Y79.600 E0.003917 F2250.0
G0 X49.961 Y79.602 E0.003917 F2250.0
G0 X49.922 Y79.608 E0.003917 F2250.0
G0 X49.884 Y79.617 E0.003917 F2250.0
G0 X49.847 Y79.630 E0.003917 F2250.0
G0 X49.811 Y79.647 E0.003917 F2250.0
G0 X49.778 Y79.667 E0.003917 F2250.0
G0 X49.746 Y79.691 E0.003917 F2250.0
G0 X49.717 Y79.717 E0.003917 F2250.0
G0 X49.691 Y79.746 E0.003917 F2250.0
G0 X49.667 Y79.778 E0.003917 F2250.0
G0 X49.647 Y79.811 E0.003917 F2250.0
G0 X49.630 Y79.847 E0.003917 F2250.0
G0 X49.617 Y79.884 E0.003917 F2250.0
G0 X49.608 Y79.922 E0.003917 F2250.0
G0 X49.602 Y79.961 E0.003917 F2250.0
G0 X49.600 Y80.000 E0.003917 F2250.0
G0 X49.600 Y100.000 E1.995667 F2250.0
G1 Z1.500 F500
G1 E-1 F3000
G0 X49.600 Y100.000 E0.000000 F45000.0
G1 E1 F3000
G92 E0
G0 X49.602 Y100.039 E0.003917 F2250.0
G0 X49.608 Y100.078 E0.003917 F2250.0
G0 X49.617 Y100.116 E0.003917 F2250.0
G0 X49.630 Y100.153 E0.003917 F2250.0
G0 X49.647 Y100.189 E0.003917 F2250.0
G0 X49.667 Y100.222 E0.003917 F2250.0
G0 X49.691 Y100.254 E0.003917 F2250.0
G0 X49.717 Y100.283 E0.003917 F2250.0
G0 X49.746 Y100.309 E0.003917 F2250.0
G0 X49.778 Y100.333 E0.003917 F2250.0
G0 X49.811 Y100.353 E0.003917 F2250.0
G0 X49.847 Y100.370 E0.003917 F2250.0
G0 X49.884 Y100.383 E0.003917 F2250.0
G0 X49.922 Y100.392 E0.003917 F2250.0
G0 X49.961 Y100.398 E0.003917 F2250.0
G0 X50.000 Y100.400 E0.003917 F2250.0
G0 X50.039 Y100.398 E0.003917 F2250.0
G0 X50.078 Y100.392 E0.003917 F2250.0
G0 X50.116 Y100.383 E0.003917 F2250.0
G0 X50.153 Y100.370 E0.003917 F2250.0
G0 X50.189 Y100.353 E0.003917 F2250.0
G0 X50.222 Y100.333 E0.003917 F2250.0
G0 X50.254 Y100.309 E0.003917 F2250.0
G0 X50.283 Y100.283 E0.003917 F2250.0
G0 X50.309 Y100.254 E0.003917 F2250.0
G0 X50.333 Y100.222 E0.003917 F2250.0
G0 X50.353 Y100.189 E0.003917 F2250.0
G0 X50.370 Y100.153 E0.003917 F2250.0
G0 X50.383 Y100.116 E0.003917 F2250.0
G0 X50.392 Y100.078 E0.003917 F2250.0
G0 X50.398 Y100.039 E0.003917 F2250.0
G0 X50.400 Y100.000 E0.003917 F2250.0
G0 X50.400 Y80.000 E1.995667 F2250.0
G0 X50.398 Y79.961 E0.003917 F2250.0
G0 X50.392 Y79.922 E0.003917 F2250.0
G0 X50.383 Y79.884 E0.003917 F2250.0
G0 X50.370 Y79.847 E0.003917 F2250.0
G0 X50.353 Y79.811 E0.003917 F2250.0
G0 X50.333 Y79.778 E0.003917 F2250.0
G0 X50.309 Y79.746 E0.003917 F2250.0
G0 X50.283 Y79.717 E0.003917 F2250.0
G0 X50.254 Y79.691 E0.003917 F2250.0
G0 X50.222 Y79.667 E0.003917 F2250.0
G0 X50.189 Y79.647 E0.003917 F2250.0
G0 X50.153 Y79.630 E0.003917 F2250.0
G0 X50.116 Y79.617 E0.003917 F2250.0
G0 X50.078 Y79.608 E0.003917 F2250.0
G0 X50.039 Y79.602 E0.003917 F2250.0
G0 X50.000 Y79.600 E0.003917 F2250.0
G0 X49.961 Y79.602 E0.003917 F2250.0
G0 X49.922 Y79.608 E0.003917 F2250.0
G0 X49.884 Y79.617 E0.003917 F2250.0
G0 X49.847 Y79.630 E0.003917 F2250.0
G0 X49.811 Y79.647 E0.003917 F2250.0
G0 X49.778 Y79.667 E0.003917 F2250.0
G0 X49.746 Y79.691 E0.003917 F2250.0
G0 X49.717 Y79.717 E0.003917 F2250.0
G0 X49.691 Y79.746 E0.003917 F2250.0
G0 X49.667 Y79.778 E0.003917 F2250.0
G0 X49.647 Y79.811 E0.003917 F2250.0
G0 X49.630 Y79.847 E0.003917 F2250.0
G0 X49.617 Y79.884 E0.003917 F2250.0
G0 X49.608 Y79.922 E0.003917 F2250.0
G0 X49.602 Y79.961 E0.003917 F2250.0
G0 X49.600 Y80.000 E0.003917 F2250.0
G0 X49.600 Y100.000 E1.995667 F2250.0
G1 Z1.800 F500
G1 E-1 F3000
G0 X49.600 Y100.000 E0.000000 F45000.0
G1 E1 F3000
G92 E0
G0 X49.602 Y100.039 E0.003917 F2250.0
G0 X49.608 Y100.078 E0.003917 F2250.0
G0 X49.617 Y100.116 E0.003917 F2250.0
G0 X49.630 Y100.153 E0.003917 F2250.0
G0 X49.647 Y100.189 E0.003917 F2250.0
G0 X49.667 Y100.222 E0.003917 F2250.0
G0 X49.691 Y100.254 E0.003917 F2250.0
G0 X49.717 Y100.283 E0.003917 F2250.0
G0 X49.746 Y100.309 E0.003917 F2250.0
G0 X49.778 Y100.333 E0.003917 F2250.0
G0 X49.811 Y100.353 E0.003917 F2250.0
G0 X49.847 Y100.370 E0.003917 F2250.0
G0 X49.884 Y100.383 E0.003917 F2250.0
G0 X49.922 Y100.392 E0.003917 F2250.0
G0 X49.961 Y100.398 E0.003917 F2250.0
G0 X50.000 Y100.400 E0.003917 F2250.0
G0 X50.039 Y100.398 E0.003917 F2250.0
G0 X50.078 Y100.392 E0.003917 F2250.0
G0 X50.116 Y100.383 E0.003917 F2250.0
G0 X50.153 Y100.370 E0.003917 F2250.0
G0 X50.189 Y100.353 E0.003917 F2250.0
G0 X50.222 Y100.333 E0.003917 F2250.0
G0 X50.254 Y100.309 E0.003917 F2250.0
G0 X50.283 Y100.283 E0.003917 F2250.0
G0 X50.309 Y100.254 E0.003917 F2250.0
G0 X50.333 Y100.222 E0.003917 F2250.0
G0 X50.353 Y100.189 E0.003917 F2250.0
G0 X50.370 Y100.153 E0.003917 F2250.0
G0 X50.383 Y100.116 E0.003917 F2250.0
G0 X50.392 Y100.078 E0.003917 F2250.0
G0 X50.398 Y100.039 E0.003917 F2250.0
G0 X50.400 Y100.000 E0.003917 F2250.0
G0 X50.400 Y80.000 E1.995667 F2250.0
G0 X50.398 Y79.961 E0.003917 F2250.0
G0 X50.392 Y79.922 E0.003917 F2250.0
G0 X50.383 Y79.884 E0.003917 F2250.0
G0 X50.370 Y79.847 E0.003917 F2250.0
G0 X50.353 Y79.811 E0.003917 F2250.0
G0 X50.333 Y79.778 E0.003917 F2250.0
G0 X50.309 Y79.746 E0.003917 F2250.0
G0 X50.283 Y79.717 E0.003917 F2250.0
G0 X50.254 Y79.691 E0.003917 F2250.0
G0 X50.222 Y79.667 E0.003917 F2250.0
G0 X50.189 Y79.647 E0.003917 F2250.0
G0 X50.153 Y79.630 E0.003917 F2250.0
G0 X50.116 Y79.617 E0.003917 F2250.0
G0 X50.078 Y79.608 E0.003917 F2250.0
G0 X50.039 Y79.602 E0.003917 F2250.0
G0 X50.000 Y79.600 E0.003917 F2250.0
G0 X49.961 Y79.602 E0.003917 F2250.0
G0 X49.922 Y79.608 E0.003917 F2250.0
G0 X49.884 Y79.617 E0.003917 F2250.0
G0 X49.847 Y79.630 E0.003917 F2250.0
G0 X49.811 Y79.647 E0.003917 F2250.0
G0 X49.778 Y79.667 E0.003917 F2250.0
G0 X49.746 Y79.691 E0.003917 F2250.0
G0 X49.717 Y79.717 E0.003917 F2250.0
G0 X49.691 Y79.746 E0.003917 F2250.0
G0 X49.667 Y79.778 E0.003917 F2250.0
G0 X49.647 Y79.811 E0.003917 F2250.0
G0 X49.630 Y79.847 E0.003917 F2250.0
G0 X49.617 Y79.884 E0.003917 F2250.0
G0 X49.608 Y79.922 E0.003917 F2250.0
G0 X49.602 Y79.961 E0.003917 F2250.0
G0 X49.600 Y80.000 E0.003917 F2250.0
G0 X49.600 Y100.000 E1.995667 F2250.0
G1 Z2.100 F500
G1 E-1 F3000
G0 X49.600 Y100.000 E0.000000 F45000.0
G1 E1 F3000
G92 E0
G0 X49.602 Y100.039 E0.003917 F2250.0
G0 X49.608 Y100.078 E0.003917 F2250.0
G0 X49.617 Y100.116 E0.003917 F2250.0
G0 X49.630 Y100.153 E0.003917 F2250.0
G0 X49.647 Y100.189 E0.003917 F2250.0
G0 X49.667 Y100.222 E0.003917 F2250.0
G0 X49.691 Y100.254 E0.003917 F2250.0
G0 X49.717 Y100.283 E0.003917 F2250.0
G0 X49.746 Y100.309 E0.003917 F2250.0
G0 X49.778 Y100.333 E0.003917 F2250.0
G0 X49.811 Y100.353 E0.003917 F2250.0
G0 X49.847 Y100.370 E0.003917 F2250.0
G0 X49.884 Y100.383 E0.003917 F2250.0
G0 X49.922 Y100.392 E0.003917 F2250.0
G0 X49.961 Y100.398 E0.003917 F2250.0
G0 X50.000 Y100.400 E0.003917 F2250.0
G0 X50.039 Y100.398 E0.003917 F2250.0
G0 X50.078 Y100.392 E0.003917 F2250.0
G0 X50.116 Y100.383 E0.003917 F2250.0
G0 X50.153 Y100.370 E0.003917 F2250.0
G0 X50.189 Y100.353 E0.003917 F2250.0
G0 X50.222 Y100.333 E0.003917 F2250.0
G0 X50.254 Y100.309 E0.003917 F2250.0
G0 X50.283 Y100.283 E0.003917 F2250.0
G0 X50.309 Y100.254 E0.003917 F2250.0
G0 X50.333 Y100.222 E0.003917 F2250.0
G0 X50.353 Y100.189 E0.003917 F2250.0
G0 X50.370 Y100.153 E0.003917 F2250.0
G0 X50.383 Y100.116 E0.003917 F2250.0
G0 X50.392 Y100.078 E0.003917 F2250.0
G0 X50.398 Y100.039 E0.003917 F2250.0
G0 X50.400 Y100.000 E0.003917 F2250.0
G0 X50.400 Y80.000 E1.995667 F2250.0
G0 X50.398 Y79.961 E0.003917 F2250.0
G0 X50.392 Y79.922 E0.003917 F2250.0
G0 X50.383 Y79.884 E0.003917 F2250.0
G0 X50.370 Y79.847 E0.003917 F2250.0
G0 X50.353 Y79.811 E0.003917 F2250.0
G0 X50.333 Y79.778 E0.003917 F2250.0
G0 X50.309 Y79.746 E0.003917 F2250.0
G0 X50.283 Y79.717 E0.003917 F2250.0
G0 X50.254 Y79.691 E0.003917 F2250.0
G0 X50.222 Y79.667 E0.003917 F2250.0
G0 X50.189 Y79.647 E0.003917 F2250.0
G0 X50.153 Y79.630 E0.003917 F2250.0
G0 X50.116 Y79.617 E0.003917 F2250.0
G0 X50.078 Y79.608 E0.003917 F2250.0
G0 X50.039 Y79.602 E0.003917 F2250.0
G0 X50.000 Y79.600 E0.003917 F2250.0
G0 X49.961 Y79.602 E0.003917 F2250.0
G0 X49.922 Y79.608 E0.003917 F2250.0
G0 X49.884 Y79.617 E0.003917 F2250.0
G0 X49.847 Y79.630 E0.003917 F2250.0
G0 X49.811 Y79.647 E0.003917 F2250.0
G0 X49.778 Y79.667 E0.003917 F2250.0
G0 X49.746 Y79.691 E0.003917 F2250.0
G0 X49.717 Y79.717 E0.003917 F2250.0
G0 X49.691 Y79.746 E0.003917 F2250.0
G0 X49.667 Y79.778 E0.003917 F2250.0
G0 X49.647 Y79.811 E0.003917 F2250.0
G0 X49.630 Y79.847 E0.003917 F2250.0
G0 X49.617 Y79.884 E0.003917 F2250.0
G0 X49.608 Y79.922 E0.003917 F2250.0
G0 X49.602 Y79.961 E0.003917 F2250.0
G0 X49.600 Y80.000 E0.003917 F2250.0
G0 X49.600 Y100.000 E1.995667 F2250.0
G1 Z2.400 F500
G1 E-1 F3000
G0 X49.600 Y100.000 E0.000000 F45000.0
G1 E1 F3000
G92 E0
G0 X49.602 Y100.039 E0.003917 F2250.0
G0 X49.608 Y100.078 E0.003917 F2250.0
G0 X49.617 Y100.116 E0.003917 F2250.0
G0 X49.630 Y100.153 E0.003917 F2250.0
G0 X49.647 Y100.189 E0.003917 F2250.0
G0 X49.667 Y100.222 E0.003917 F2250.0
G0 X49.691 Y100.254 E0.003917 F2250.0
G0 X49.717 Y100.283 E0.003917 F2250.0
G0 X49.746 Y100.309 E0.003917 F2250.0
G0 X49.778 Y100.333 E0.003917 F2250.0
G0 X49.811 Y100.353 E0.003917 F2250.0
G0 X49.847 Y100.370 E0.003917 F2250.0
G0 X49.884 Y100.383 E0.003917 F2250.0
G0 X49.922 Y100.392 E0.003917 F2250.0
G0 X49.961 Y100.398 E0.003917 F2250.0
G0 X50.000 Y100.400 E0.003917 F2250.0
G0 X50.039 Y100.398 E0.003917 F2250.0
G0 X50.078 Y100.392 E0.003917 F2250.0
G0 X50.116 Y100.383 E0.003917 F2250.0
G0 X50.153 Y100.370 E0.003917 F2250.0
G0 X50.189 Y100.353 E0.003917 F2250.0
G0 X50.222 Y100.333 E0.003917 F2250.0
G0 X50.254 Y100.309 E0.003917 F2250.0
G0 X50.283 Y100.283 E0.003917 F2250.0
G0 X50.309 Y100.254 E0.003917 F2250.0
G0 X50.333 Y100.222 E0.003917 F2250.0
G0 X50.353 Y100.189 E0.003917 F2250.0
G0 X50.370 Y100.153 E0.003917 F2250.0
G0 X50.383 Y100.116 E0.003917 F2250.0
G0 X50.392 Y100.078 E0.003917 F2250.0
G0 X50.398 Y100.039 E0.003917 F2250.0
G0 X50.400 Y100.000 E0.003917 F2250.0
G0 X50.400 Y80.000 E1.995667 F2250.0
G0 X50.398 Y79.961 E0.003917 F2250.0
G0 X50.392 Y79.922 E0.003917 F2250.0
G0 X50.383 Y79.884 E0.003917 F2250.0
G0 X50.370 Y79.847 E0.003917 F2250.0
G0 X50.353 Y79.811 E0.003917 F2250.0
G0 X50.333 Y79.778 E0.003917 F2250.0
G0 X50.309 Y79.746 E0.003917 F2250.0
G0 X50.283 Y79.717 E0.003917 F2250.0
G0 X50.254 Y79.691 E0.003917 F2250.0
G0 X50.222 Y79.667 E0.003917 F2250.0
G0 X50.189 Y79.647 E0.003917 F2250.0
G0 X50.153 Y79.630 E0.003917 F2250.0
G0 X50.116 Y79.617 E0.003917 F2250.0
G0 X50.078 Y79.608 E0.003917 F2250.0
G0 X50.039 Y79.602 E0.003917 F2250.0
G0 X50.000 Y79.600 E0.003917 F2250.0
G0 X49.961 Y79.602 E0.003917 F2250.0
G0 X49.922 Y79.608 E0.003917 F2250.0
G0 X49.884 Y79.617 E0.003917 F2250.0
G0 X49.847 Y79.630 E0.003917 F2250.0
G0 X49.811 Y79.647 E0.003917 F2250.0
G0 X49.778 Y79.667 E0.003917 F2250.0
G0 X49.746 Y79.691 E0.003917 F2250.0
G0 X49.717 Y79.717 E0.003917 F2250.0
G0 X49.691 Y79.746 E0.003917 F2250.0
G0 X49.667 Y79.778 E0.003917 F2250.0
G0 X49.647 Y79.811 E0.003917 F2250.0
G0 X49.630 Y79.847 E0.003917 F2250.0
G0 X49.617 Y79.884 E0.003917 F2250.0
G0 X49.608 Y79.922 E0.003917 F2250.0
G0 X49.602 Y79.961 E0.003917 F2250.0
G0 X49.600 Y80.000 E0.003917 F2250.0
G0 X49.600 Y100.000 E1.995667 F2250.0
G1 Z2.700 F500
G1 E-1 F3000
G0 X49.600 Y100.000 E0.000000 F45000.0
G1 E1 F3000
G92 E0
G0 X49.602 Y100.039 E0.003917 F2250.0
G0 X49.608 Y100.078 E0.003917 F2250.0
G0 X49.617 Y100.116 E0.003917 F2250.0
G0 X49.630 Y100.153 E0.003917 F2250.0
G0 X49.647 Y100.189 E0.003917 F2250.0
G0 X49.667 Y100.222 E0.003917 F2250.0
G0 X49.691 Y100.254 E0.003917 F2250.0
G0 X49.717 Y100.283 E0.003917 F2250.0
G0 X49.746 Y100.309 E0.003917 F2250.0
G0 X49.778 Y100.333 E0.003917 F2250.0
G0 X49.811 Y100.353 E0.003917 F2250.0
G0 X49.847 Y100.370 E0.003917 F2250.0
G0 X49.884 Y100.383 E0.003917 F2250.0
G0 X49.922 Y100.392 E0.003917 F2250.0
G0 X49.961 Y100.398 E0.003917 F2250.0
G0 X50.000 Y100.400 E0.003917 F2250.0
G0 X50.039 Y100.398 E0.003917 F2250.0
G0 X50.078 Y100.392 E0.003917 F2250.0
G0 X50.116 Y100.383 E0.003917 F2250.0
G0 X50.153 Y100.370 E0.003917 F2250.0
G0 X50.189 Y100.353 E0.003917 F2250.0
G0 X50.222 Y100.333 E0.003917 F2250.0
G0 X50.254 Y100.309 E0.003917 F2250.0
G0 X50.283 Y100.283 E0.003917 F2250.0
G0 X50.309 Y100.254 E0.003917 F2250.0
G0 X50.333 Y100.222 E0.003917 F2250.0
G0 X50.353 Y100.189 E0.003917 F2250.0
G0 X50.370 Y100.153 E0.003917 F2250.0
G0 X50.383 Y100.116 E0.003917 F2250.0
G0 X50.392 Y100.078 E0.003917 F2250.0
G0 X50.398 Y100.039 E0.003917 F2250.0
G0 X50.400 Y100.000 E0.003917 F2250.0
G0 X50.400 Y80.000 E1.995667 F2250.0
G0 X50.398 Y79.961 E0.003917 F2250.0
G0 X50.392 Y79.922 E0.003917 F2250.0
G0 X50.383 Y79.884 E0.003917 F2250.0
G0 X50.370 Y79.847 E0.003917 F2250.0
G0 X50.353 Y79.811 E0.003917 F2250.0
G0 X50.333 Y79.778 E0.003917 F2250.0
G0 X50.309 Y79.746 E0.003917 F2250.0
G0 X50.283 Y79.717 E0.003917 F2250.0
G0 X50.254 Y79.691 E0.003917 F2250.0
G0 X50.222 Y79.667 E0.003917 F2250.0
G0 X50.189 Y79.647 E0.003917 F2250.0
G0 X50.153 Y79.630 E0.003917 F2250.0
G0 X50.116 Y79.617 E0.003917 F2250.0
G0 X50.078 Y79.608 E0.003917 F2250.0
G0 X50.039 Y79.602 E0.003917 F2250.0
G0 X50.000 Y79.600 E0.003917 F2250.0
G0 X49.961 Y79.602 E0.003917 F2250.0
G0 X49.922 Y79.608 E0.003917 F2250.0
G0 X49.884 Y79.617 E0.003917 F2250.0
G0 X49.847 Y79.630 E0.003917 F2250.0
G0 X49.811 Y79.647 E0.003917 F2250.0
G0 X49.778 Y79.667 E0.003917 F2250.0
G0 X49.746 Y79.691 E0.003917 F2250.0
G0 X49.717 Y79.717 E0.003917 F2250.0
G0 X49.691 Y79.746 E0.003917 F2250.0
G0 X49.667 Y79.778 E0.003917 F2250.0
G0 X49.647 Y79.811 E0.003917 F2250.0
G0 X49.630 Y79.847 E0.003917 F2250.0
G0 X49.617 Y79.884 E0.003917 F2250.0
G0 X49.608 Y79.922 E0.003917 F2250.0
G0 X49.602 Y79.961 E0.003917 F2250.0
G0 X49.600 Y80.000 E0.003917 F2250.0
G0 X49.600 Y100.000 E1.995667 F2250.0
G1 Z3.000 F500
G1 E-1 F3000
G0 X49.600 Y100.000 E0.000000 F45000.0
G1 E1 F3000
G92 E0
G0 X49.602 Y100.039 E0.003917 F2250.0
G0 X49.608 Y100.078 E0.003917 F2250.0
G0 X49.617 Y100.116 E0.003917 F2250.0
G0 X49.630 Y100.153 E0.003917 F2250.0
G0 X49.647 Y100.189 E0.003917 F2250.0
G0 X49.667 Y100.222 E0.003917 F2250.0
G0 X49.691 Y100.254 E0.003917 F2250.0
G0 X49.717 Y100.283 E0.003917 F2250.0
G0 X49.746 Y100.309 E0.003917 F2250.0
G0 X49.778 Y100.333 E0.003917 F2250.0
G0 X49.811 Y100.353 E0.003917 F2250.0
G0 X49.847 Y100.370 E0.003917 F2250.0
G0 X49.884 Y100.383 E0.003917 F2250.0
G0 X49.922 Y100.392 E0.003917 F2250.0
G0 X49.961 Y100.398 E0.003917 F2250.0
G0 X50.000 Y100.400 E0.003917 F2250.0
G0 X50.039 Y100.398 E0.003917 F2250.0
G0 X50.078 Y100.392 E0.003917 F2250.0
G0 X50.116 Y100.383 E0.003917 F2250.0
G0 X50.153 Y100.370 E0.003917 F2250.0
G0 X50.189 Y100.353 E0.003917 F2250.0
G0 X50.222 Y100.333 E0.003917 F2250.0
G0 X50.254 Y100.309 E0.003917 F2250.0
G0 X50.283 Y100.283 E0.003917 F2250.0
G0 X50.309 Y100.254 E0.003917 F2250.0
G0 X50.333 Y100.222 E0.003917 F2250.0
G0 X50.353 Y100.189 E0.003917 F2250.0
G0 X50.370 Y100.153 E0.003917 F2250.0
G0 X50.383 Y100.116 E0.003917 F2250.0
G0 X50.392 Y100.078 E0.003917 F2250.0
G0 X50.398 Y100.039 E0.003917 F2250.0
G0 X50.400 Y100.000 E0.003917 F2250.0
G0 X50.400 Y80.000 E1.995667 F2250.0
G0 X50.398 Y79.961 E0.003917 F2250.0
G0 X50.392 Y79.922 E0.003917 F2250.0
G0 X50.383 Y79.884 E0.003917 F2250.0
G0 X50.370 Y79.847 E0.003917 F2250.0
G0 X50.353 Y79.811 E0.003917 F2250.0
G0 X50.333 Y79.778 E0.003917 F2250.0
G0 X50.309 Y79.746 E0.003917 F2250.0
G0 X50.283 Y79.717 E0.003917 F2250.0
G0 X50.254 Y79.691 E0.003917 F2250.0
G0 X50.222 Y79.667 E0.003917 F2250.0
G0 X50.189 Y79.647 E0.003917 F2250.0
G0 X50.153 Y79.630 E0.003917 F2250.0
G0 X50.116 Y79.617 E0.003917 F2250.0
G0 X50.078 Y79.608 E0.003917 F2250.0
G0 X50.039 Y79.602 E0.003917 F2250.0
G0 X50.000 Y79.600 E0.003917 F2250.0
G0 X49.961 Y79.602 E0.003917 F2250.0
G0 X49.922 Y79.608 E0.003917 F2250.0
G0 X49.884 Y79.617 E0.003917 F2250.0
G0 X49.847 Y79.630 E0.003917 F2250.0
G0 X49.811 Y79.647 E0.003917 F2250.0
G0 X49.778 Y79.667 E0.003917 F2250.0
G0 X49.746 Y79.691 E0.003917 F2250.0
G0 X49.717 Y79.717 E0.003917 F2250.0
G0 X49.691 Y79.746 E0.003917 F2250.0
G0 X49.667 Y79.778 E0.003917 F2250.0
G0 X49.647 Y79.811 E0.003917 F2250.0
G0 X49.630 Y79.847 E0.003917 F2250.0
G0 X49.617 Y79.884 E0.003917 F2250.0
G0 X49.608 Y79.922 E0.003917 F2250.0
G0 X49.602 Y79.961 E0.003917 F2250.0
G0 X49.600 Y80.000 E0.003917 F2250.0
G0 X49.600 Y100.000 E1.995667 F2250.0
G1 Z3.300 F500
G1 E-1 F3000
G0 X49.600 Y100.000 E0.000000 F45000.0
G1 E1 F3000
G92 E0
G0 X49.602 Y100.039 E0.003917 F2250.0
G0 X49.608 Y100.078 E0.003917 F2250.0
G0 X49.617 Y100.116 E0.003917 F2250.0
G0 X49.630 Y100.153 E0.003917 F2250.0
G0 X49.647 Y100.189 E0.003917 F2250.0
G0 X49.667 Y100.222 E0.003917 F2250.0
G0 X49.691 Y100.254 E0.003917 F2250.0
G0 X49.717 Y100.283 E0.003917 F2250.0
G0 X49.746 Y100.309 E0.003917 F2250.0
G0 X49.778 Y100.333 E0.003917 F2250.0
G0 X49.811 Y100.353 E0.003917 F2250.0
G0 X49.847 Y100.370 E0.003917 F2250.0
G0 X49.884 Y100.383 E0.003917 F2250.0
G0 X49.922 Y100.392 E0.003917 F2250.0
G0 X49.961 Y100.398 E0.003917 F2250.0
G0 X50.000 Y100.400 E0.003917 F2250.0
G0 X50.039 Y100.398 E0.003917 F2250.0
G0 X50.078 Y100.392 E0.003917 F2250.0
G0 X50.116 Y100.383 E0.003917 F2250.0
G0 X50.153 Y100.370 E0.003917 F2250.0
G0 X50.189 Y100.353 E0.003917 F2250.0
G0 X50.222 Y100.333 E0.003917 F2250.0
G0 X50.254 Y100.309 E0.003917 F2250.0
G0 X50.283 Y100.283 E0.003917 F2250.0
G0 X50.309 Y100.254 E0.003917 F2250.0
G0 X50.333 Y100.222 E0.003917 F2250.0
G0 X50.353 Y100.189 E0.003917 F2250.0
G0 X50.370 Y100.153 E0.003917 F2250.0
G0 X50.383 Y100.116 E0.003917 F2250.0
G0 X50.392 Y100.078 E0.003917 F2250.0
G0 X50.398 Y100.039 E0.003917 F2250.0
G0 X50.400 Y100.000 E0.003917 F2250.0
G0 X50.400 Y80.000 E1.995667 F2250.0
G0 X50.398 Y79.961 E0.003917 F2250.0
G0 X50.392 Y79.922 E0.003917 F2250.0
G0 X50.383 Y79.884 E0.003917 F2250.0
G0 X50.370 Y79.847 E0.003917 F2250.0
G0 X50.353 Y79.811 E0.003917 F2250.0
G0 X50.333 Y79.778 E0.003917 F2250.0
G0 X50.309 Y79.746 E0.003917 F2250.0
G0 X50.283 Y79.717 E0.003917 F2250.0
G0 X50.254 Y79.691 E0.003917 F2250.0
G0 X50.222 Y79.667 E0.003917 F2250.0
G0 X50.189 Y79.647 E0.003917 F2250.0
G0 X50.153 Y79.630 E0.003917 F2250.0
G0 X50.116 Y79.617 E0.003917 F2250.0
G0 X50.078 Y79.608 E0.003917 F2250.0
G0 X50.039 Y79.602 E0.003917 F2250.0
G0 X50.000 Y79.600 E0.003917 F2250.0
G0 X49.961 Y79.602 E0.003917 F2250.0
G0 X49.922 Y79.608 E0.003917 F2250.0
G0 X49.884 Y79.617 E0.003917 F2250.0
G0 X49.847 Y79.630 E0.003917 F2250.0
G0 X49.811 Y79.647 E0.003917 F2250.0
G0 X49.778 Y79.667 E0.003917 F2250.0
G0 X49.746 Y79.691 E0.003917 F2250.0
G0 X49.717 Y79.717 E0.003917 F2250.0
G0 X49.691 Y79.746 E0.003917 F2250.0
G0 X49.667 Y79.778 E0.003917 F2250.0
G0 X49.647 Y79.811 E0.003917 F2250.0
G0 X49.630 Y79.847 E0.003917 F2250.0
G0 X49.617 Y79.884 E0.003917 F2250.0
G0 X49.608 Y79.922 E0.003917 F2250.0
G0 X49.602 Y79.961 E0.003917 F2250.0
G0 X49.600 Y80.000 E0.003917 F2250.0
G0 X49.600 Y100.000 E1.995667 F2250.0
G1 Z3.600 F500
G1 E-1 F3000
G0 X49.600 Y100.000 E0.000000 F45000.0
G1 E1 F3000
G92 E0
G0 X49.602 Y100.039 E0.003917 F2250.0
G0 X49.608 Y100.078 E0.003917 F2250.0
G0 X49.617 Y100.116 E0.003917 F2250.0
G0 X49.630 Y100.153 E0.003917 F2250.0
G0 X49.647 Y100.189 E0.003917 F2250.0
G0 X49.667 Y100.222 E0.003917 F2250.0
G0 X49.691 Y100.254 E0.003917 F2250.0
G0 X49.717 Y100.283 E0.003917 F2250.0
G0 X49.746 Y100.309 E0.003917 F2250.0
G0 X49.778 Y100.333 E0.003917 F2250.0
G0 X49.811 Y100.353 E0.003917 F2250.0
G0 X49.847 Y100.370 E0.003917 F2250.0
G0 X49.884 Y100.383 E0.003917 F2250.0
G0 X49.922 Y100.392 E0.003917 F2250.0
G0 X49.961 Y100.398 E0.003917 F2250.0
G0 X50.000 Y100.400 E0.003917 F2250.0
G0 X50.039 Y100.398 E0.003917 F2250.0
G0 X50.078 Y100.392 E0.003917 F2250.0
G0 X50.116 Y100.383 E0.003917 F2250.0
G0 X50.153 Y100.370 E0.003917 F2250.0
G0 X50.189 Y100.353 E0.003917 F2250.0
G0 X50.222 Y100.333 E0.003917 F2250.0
G0 X50.254 Y100.309 E0.003917 F2250.0
G0 X50.283 Y100.283 E0.003917 F2250.0
G0 X50.309 Y100.254 E0.003917 F2250.0
G0 X50.333 Y100.222 E0.003917 F2250.0
G0 X50.353 Y100.189 E0.003917 F2250.0
G0 X50.370 Y100.153 E0.003917 F2250.0
G0 X50.383 Y100.116 E0.003917 F2250.0
G0 X50.392 Y100.078 E0.003917 F2250.0
G0 X50.398 Y100.039 E0.003917 F2250.0
G0 X50.400 Y100.000 E0.003917 F2250.0
G0 X50.400 Y80.000 E1.995667 F2250.0
G0 X50.398 Y79.961 E0.003917 F2250.0
G0 X50.392 Y79.922 E0.003917 F2250.0
G0 X50.383 Y79.884 E0.003917 F2250.0
G0 X50.370 Y79.847 E0.003917 F2250.0
G0 X50.353 Y79.811 E0.003917 F2250.0
G0 X50.333 Y79.778 E0.003917 F2250.0
G0 X50.309 Y79.746 E0.003917 F2250.0
G0 X50.283 Y79.717 E0.003917 F2250.0
G0 X50.254 Y79.691 E0.003917 F2250.0
G0 X50.222 Y79.667 E0.003917 F2250.0
G0 X50.189 Y79.647 E0.003917 F2250.0
G0 X50.153 Y79.630 E0.003917 F2250.0
G0 X50.116 Y79.617 E0.003917 F2250.0
G0 X50.078 Y79.608 E0.003917 F2250.0
G0 X50.039 Y79.602 E0.003917 F2250.0
G0 X50.000 Y79.600 E0.003917 F2250.0
G0 X49.961 Y79.602 E0.003917 F2250.0
G0 X49.922 Y79.608 E0.003917 F2250.0
G0 X49.884 Y79.617 E0.003917 F2250.0
G0 X49.847 Y79.630 E0.003917 F2250.0
G0 X49.811 Y79.647 E0.003917 F2250.0
G0 X49.778 Y79.667 E0.003917 F2250.0
G0 X49.746 Y79.691 E0.003917 F2250.0
G0 X49.717 Y79.717 E0.003917 F2250.0
G0 X49.691 Y79.746 E0.003917 F2250.0
G0 X49.667 Y79.778 E0.003917 F2250.0
G0 X49.647 Y79.811 E0.003917 F2250.0
G0 X49.630 Y79.847 E0.003917 F2250.0
G0 X49.617 Y79.884 E0.003917 F2250.0
G0 X49.608 Y79.922 E0.003917 F2250.0
G0 X49.602 Y79.961 E0.003917 F2250.0
G0 X49.600 Y80.000 E0.003917 F2250.0
G0 X49.600 Y100.000 E1.995667 F2250.0
G1 Z3.900 F500
G1 E-1 F3000
G0 X49.600 Y100.000 E0.000000 F45000.0
G1 E1 F3000
G92 E0
G0 X49.602 Y100.039 E0.003917 F2250.0
G0 X49.608 Y100.078 E0.003917 F2250.0
G0 X49.617 Y100.116 E0.003917 F2250.0
G0 X49.630 Y100.153 E0.003917 F2250.0
G0 X49.647 Y100.189 E0.003917 F2250.0
G0 X49.667 Y100.222 E0.003917 F2250.0
G0 X49.691 Y100.254 E0.003917 F2250.0
G0 X49.717 Y100.283 E0.003917 F2250.0
G0 X49.746 Y100.309 E0.003917 F2250.0
G0 X49.778 Y100.333 E0.003917 F2250.0
G0 X49.811 Y100.353 E0.003917 F2250.0
G0 X49.847 Y100.370 E0.003917 F2250.0
G0 X49.884 Y100.383 E0.003917 F2250.0
G0 X49.922 Y100.392 E0.003917 F2250.0
G0 X49.961 Y100.398 E0.003917 F2250.0
G0 X50.000 Y100.400 E0.003917 F2250.0
G0 X50.039 Y100.398 E0.003917 F2250.0
G0 X50.078 Y100.392 E0.003917 F2250.0
G0 X50.116 Y100.383 E0.003917 F2250.0
G0 X50.153 Y100.370 E0.003917 F2250.0
G0 X50.189 Y100.353 E0.003917 F2250.0
G0 X50.222 Y100.333 E0.003917 F2250.0
G0 X50.254 Y100.309 E0.003917 F2250.0
G0 X50.283 Y100.283 E0.003917 F2250.0
G0 X50.309 Y100.254 E0.003917 F2250.0
G0 X50.333 Y100.222 E0.003917 F2250.0
G0 X50.353 Y100.189 E0.003917 F2250.0
G0 X50.370 Y100.153 E0.003917 F2250.0
G0 X50.383 Y100.116 E0.003917 F2250.0
G0 X50.392 Y100.078 E0.003917 F2250.0
G0 X50.398 Y100.039 E0.003917 F2250.0
G0 X50.400 Y100.000 E0.003917 F2250.0
G0 X50.400 Y80.000 E1.995667 F2250.0
G0 X50.398 Y79.961 E0.003917 F2250.0
G0 X50.392 Y79.922 E0.003917 F2250.0
G0 X50.383 Y79.884 E0.003917 F2250.0
G0 X50.370 Y79.847 E0.003917 F2250.0
G0 X50.353 Y79.811 E0.003917 F2250.0
G0 X50.333 Y79.778 E0.003917 F2250.0
G0 X50.309 Y79.746 E0.003917 F2250.0
G0 X50.283 Y79.717 E0.003917 F2250.0
G0 X50.254 Y79.691 E0.003917 F2250.0
G0 X50.222 Y79.667 E0.003917 F2250.0
G0 X50.189 Y79.647 E0.003917 F2250.0
G0 X50.153 Y79.630 E0.003917 F2250.0
G0 X50.116 Y79.617 E0.003917 F2250.0
G0 X50.078 Y79.608 E0.003917 F2250.0
G0 X50.039 Y79.602 E0.003917 F2250.0
G0 X50.000 Y79.600 E0.003917 F2250.0
G0 X49.961 Y79.602 E0.003917 F2250.0
G0 X49.922 Y79.608 E0.003917 F2250.0
G0 X49.884 Y79.617 E0.003917 F2250.0
G0 X49.847 Y79.630 E0.003917 F2250.0
G0 X49.811 Y79.647 E0.003917 F2250.0
G0 X49.778 Y79.667 E0.003917 F2250.0
G0 X49.746 Y79.691 E0.003917 F2250.0
G0 X49.717 Y79.717 E0.003917 F2250.0
G0 X49.691 Y79.746 E0.003917 F2250.0
G0 X49.667 Y79.778 E0.003917 F2250.0
G0 X49.647 Y79.811 E0.003917 F2250.0
G0 X49.630 Y79.847 E0.003917 F2250.0
G0 X49.617 Y79.884 E0.003917 F2250.0
G0 X49.608 Y79.922 E0.003917 F2250.0
G0 X49.602 Y79.961 E0.003917 F2250.0
G0 X49.600 Y80.000 E0.003917 F2250.0
G0 X49.600 Y100.000 E1.995667 F2250.0
G1 Z4.200 F500
G1 E-1 F3000
G0 X49.600 Y100.000 E0.000000 F45000.0
G1 E1 F3000
G92 E0
G0 X49.602 Y100.039 E0.003917 F2250.0
G0 X49.608 Y100.078 E0.003917 F2250.0
G0 X49.617 Y100.116 E0.003917 F2250.0
G0 X49.630 Y100.153 E0.003917 F2250.0
G0 X49.647 Y100.189 E0.003917 F2250.0
G0 X49.667 Y100.222 E0.003917 F2250.0
G0 X49.691 Y100.254 E0.003917 F2250.0
G0 X49.717 Y100.283 E0.003917 F2250.0
G0 X49.746 Y100.309 E0.003917 F2250.0
G0 X49.778 Y100.333 E0.003917 F2250.0
G0 X49.811 Y100.353 E0.003917 F2250.0
G0 X49.847 Y100.370 E0.003917 F2250.0
G0 X49.884 Y100.383 E0.003917 F2250.0
G0 X49.922 Y100.392 E0.003917 F2250.0
G0 X49.961 Y100.398 E0.003917 F2250.0
G0 X50.000 Y100.400 E0.003917 F2250.0
G0 X50.039 Y100.398 E0.003917 F2250.0
G0 X50.078 Y100.392 E0.003917 F2250.0
G0 X50.116 Y100.383 E0.003917 F2250.0
G0 X50.153 Y100.370 E0.003917 F2250.0
G0 X50.189 Y100.353 E0.003917 F2250.0
G0 X50.222 Y100.333 E0.003917 F2250.0
G0 X50.254 Y100.309 E0.003917 F2250.0
G0 X50.283 Y100.283 E0.003917 F2250.0
G0 X50.309 Y100.254 E0.003917 F2250.0
G0 X50.333 Y100.222 E0.003917 F2250.0
G0 X50.353 Y100.189 E0.003917 F2250.0
G0 X50.370 Y100.153 E0.003917 F2250.0
G0 X50.383 Y100.116 E0.003917 F2250.0
G0 X50.392 Y100.078 E0.003917 F2250.0
G0 X50.398 Y100.039 E0.003917 F2250.0
G0 X50.400 Y100.000 E0.003917 F2250.0
G0 X50.400 Y80.000 E1.995667 F2250.0
G0 X50.398 Y79.961 E0.003917 F2250.0
G0 X50.392 Y79.922 E0.003917 F2250.0
G0 X50.383 Y79.884 E0.003917 F2250.0
G0 X50.370 Y79.847 E0.003917 F2250.0
G0 X50.353 Y79.811 E0.003917 F2250.0
G0 X50.333 Y79.778 E0.003917 F2250.0
G0 X50.309 Y79.746 E0.003917 F2250.0
G0 X50.283 Y79.717 E0.003917 F2250.0
G0 X50.254 Y79.691 E0.003917 F2250.0
G0 X50.222 Y79.667 E0.003917 F2250.0
G0 X50.189 Y79.647 E0.003917 F2250.0
G0 X50.153 Y79.630 E0.003917 F2250.0
G0 X50.116 Y79.617 E0.003917 F2250.0
G0 X50.078 Y79.608 E0.003917 F2250.0
G0 X50.039 Y79.602 E0.003917 F2250.0
G0 X50.000 Y79.600 E0.003917 F2250.0
G0 X49.961 Y79.602 E0.003917 F2250.0
G0 X49.922 Y79.608 E0.003917 F2250.0
G0 X49.884 Y79.617 E0.003917 F2250.0
G0 X49.847 Y79.630 E0.003917 F2250.0
G0 X49.811 Y79.647 E0.003917 F2250.0
G0 X49.778 Y79.667 E0.003917 F2250.0
G0 X49.746 Y79.691 E0.003917 F2250.0
G0 X49.717 Y79.717 E0.003917 F2250.0
G0 X49.691 Y79.746 E0.003917 F2250.0
G0 X49.667 Y79.778 E0.003917 F2250.0
G0 X49.647 Y79.811 E0.003917 F2250.0
G0 X49.630 Y79.847 E0.003917 F2250.0
G0 X49.617 Y79.884 E0.003917 F2250.0
G0 X49.608 Y79.922 E0.003917 F2250.0
G0 X49.602 Y79.961 E0.003917 F2250.0
G0 X49.600 Y80.000 E0.003917 F2250.0
G0 X49.600 Y100.000 E1.995667 F2250.0
G1 Z4.500 F500
G1 E-1 F3000
G0 X49.600 Y100.000 E0.000000 F45000.0
G1 E1 F3000
G92 E0
G0 X49.602 Y100.039 E0.003917 F2250.0
G0 X49.608 Y100.078 E0.003917 F2250.0
G0 X49.617 Y100.116 E0.003917 F2250.0
G0 X49.630 Y100.153 E0.003917 F2250.0
G0 X49.647 Y100.189 E0.003917 F2250.0
G0 X49.667 Y100.222 E0.003917 F2250.0
G0 X49.691 Y100.254 E0.003917 F2250.0
G0 X49.717 Y100.283 E0.003917 F2250.0
G0 X49.746 Y100.309 E0.003917 F2250.0
G0 X49.778 Y100.333 E0.003917 F2250.0
G0 X49.811 Y100.353 E0.003917 F2250.0
G0 X49.847 Y100.370 E0.003917 F2250.0
G0 X49.884 Y100.383 E0.003917 F2250.0
G0 X49.922 Y100.392 E0.003917 F2250.0
G0 X49.961 Y100.398 E0.003917 F2250.0
G0 X50.000 Y100.400 E0.003917 F2250.0
G0 X50.039 Y100.398 E0.003917 F2250.0
G0 X50.078 Y100.392 E0.003917 F2250.0
G0 X50.116 Y100.383 E0.003917 F2250.0
G0 X50.153 Y100.370 E0.003917 F2250.0
G0 X50.189 Y100.353 E0.003917 F2250.0
G0 X50.222 Y100.333 E0.003917 F2250.0
G0 X50.254 Y100.309 E0.003917 F2250.0
G0 X50.283 Y100.283 E0.003917 F2250.0
G0 X50.309 Y100.254 E0.003917 F2250.0
G0 X50.333 Y100.222 E0.003917 F2250.0
G0 X50.353 Y100.189 E0.003917 F2250.0
G0 X50.370 Y100.153 E0.003917 F2250.0
G0 X50.383 Y100.116 E0.003917 F2250.0
G0 X50.392 Y100.078 E0.003917 F2250.0
G0 X50.398 Y100.039 E0.003917 F2250.0
G0 X50.400 Y100.000 E0.003917 F2250.0
G0 X50.400 Y80.000 E1.995667 F2250.0
G0 X50.398 Y79.961 E0.003917 F2250.0
G0 X50.392 Y79.922 E0.003917 F2250.0
G0 X50.383 Y79.884 E0.003917 F2250.0
G0 X50.370 Y79.847 E0.003917 F2250.0
G0 X50.353 Y79.811 E0.003917 F2250.0
G0 X50.333 Y79.778 E0.003917 F2250.0
G0 X50.309 Y79.746 E0.003917 F2250.0
G0 X50.283 Y79.717 E0.003917 F2250.0
G0 X50.254 Y79.691 E0.003917 F2250.0
G0 X50.222 Y79.667 E0.003917 F2250.0
G0 X50.189 Y79.647 E0.003917 F2250.0
G0 X50.153 Y79.630 E0.003917 F2250.0
G0 X50.116 Y79.617 E0.003917 F2250.0
G0 X50.078 Y79.608 E0.003917 F2250.0
G0 X50.039 Y79.602 E0.003917 F2250.0
G0 X50.000 Y79.600 E0.003917 F2250.0
G0 X49.961 Y79.602 E0.003917 F2250.0
G0 X49.922 Y79.608 E0.003917 F2250.0
G0 X49.884 Y79.617 E0.003917 F2250.0
G0 X49.847 Y79.630 E0.003917 F2250.0
G0 X49.811 Y79.647 E0.003917 F2250.0
G0 X49.778 Y79.667 E0.003917 F2250.0
G0 X49.746 Y79.691 E0.003917 F2250.0
G0 X49.717 Y79.717 E0.003917 F2250.0
G0 X49.691 Y79.746 E0.003917 F2250.0
G0 X49.667 Y79.778 E0.003917 F2250.0
G0 X49.647 Y79.811 E0.003917 F2250.0
G0 X49.630 Y79.847 E0.003917 F2250.0
G0 X49.617 Y79.884 E0.003917 F2250.0
G0 X49.608 Y79.922 E0.003917 F2250.0
G0 X49.602 Y79.961 E0.003917 F2250.0
G0 X49.600 Y80.000 E0.003917 F2250.0
G0 X49.600 Y100.000 E1.995667 F2250.0
G1 Z4.800 F500
G1 E-1 F3000
G0 X50.000 Y90.136 E0.000000 F7500.0
G1 E1 F3000
G92 E0
G0 X50.055 Y90.132 E0.003202 F375.0
G0 X50.055 Y90.132 E0.000000 F375.0
G0 X50.108 Y90.118 E0.003202 F375.0
G0 X50.158 Y90.097 E0.003202 F375.0
G0 X50.204 Y90.068 E0.003202 F375.0
G0 X50.245 Y90.031 E0.003202 F375.0
G0 X50.280 Y89.989 E0.003202 F375.0
G0 X50.307 Y89.942 E0.003202 F375.0
G0 X50.327 Y89.891 E0.003202 F375.0
G0 X50.338 Y89.837 E0.003202 F375.0
G0 X50.340 Y89.782 E0.003202 F375.0
G0 X50.333 Y89.728 E0.003202 F375.0
G0 X50.318 Y89.675 E0.003202 F375.0
G0 X50.294 Y89.626 E0.003202 F375.0
G0 X50.263 Y89.581 E0.003202 F375.0
G0 X50.225 Y89.541 E0.003202 F375.0
G0 X50.182 Y89.509 E0.003202 F375.0
G0 X50.133 Y89.483 E0.003202 F375.0
G0 X50.081 Y89.466 E0.003202 F375.0
G0 X50.027 Y89.457 E0.003202 F375.0
G0 X50.000 Y89.457 E0.001601 F375.0
G1 E-1 F3000
G0 X50.000 Y90.476 E0.000000 F7500.0
G1 E1 F3000
G92 E0
G0 X50.109 Y90.467 E0.006404 F375.0
G0 X50.109 Y90.467 E0.000000 F375.0
G0 X50.215 Y90.441 E0.006404 F375.0
G0 X50.316 Y90.398 E0.006404 F375.0
G0 X50.409 Y90.340 E0.006404 F375.0
G0 X50.490 Y90.267 E0.006404 F375.0
G0 X50.560 Y90.182 E0.006404 F375.0
G0 X50.614 Y90.087 E0.006404 F375.0
G0 X50.653 Y89.985 E0.006404 F375.0
G0 X50.675 Y89.878 E0.006404 F375.0
G0 X50.679 Y89.769 E0.006404 F375.0
G0 X50.666 Y89.660 E0.006404 F375.0
G0 X50.636 Y89.555 E0.006404 F375.0
G0 X50.589 Y89.456 E0.006404 F375.0
G0 X50.527 Y89.366 E0.006404 F375.0
G0 X50.451 Y89.287 E0.006404 F375.0
G0 X50.363 Y89.221 E0.006404 F375.0
G0 X50.267 Y89.170 E0.006404 F375.0
G0 X50.163 Y89.136 E0.006404 F375.0
G0 X50.055 Y89.118 E0.006404 F375.0
G0 X50.000 Y89.118 E0.003202 F375.0
G1 E-1 F3000
G0 X50.000 Y90.816 E0.000000 F7500.0
G1 E1 F3000
G92 E0
G0 X50.164 Y90.803 E0.009607 F375.0
G0 X50.164 Y90.803 E0.000000 F375.0
G0 X50.323 Y90.763 E0.009607 F375.0
G0 X50.474 Y90.699 E0.009607 F375.0
G0 X50.613 Y90.611 E0.009607 F375.0
G0 X50.736 Y90.502 E0.009607 F375.0
G0 X50.839 Y90.375 E0.009607 F375.0
G0 X50.922 Y90.233 E0.009607 F375.0
G0 X50.980 Y90.080 E0.009607 F375.0
G0 X51.013 Y89.919 E0.009607 F375.0
G0 X51.019 Y89.755 E0.009607 F375.0
G0 X50.999 Y89.592 E0.009607 F375.0
G0 X50.954 Y89.434 E0.009607 F375.0
G0 X50.883 Y89.286 E0.009607 F375.0
G0 X50.790 Y89.151 E0.009607 F375.0
G0 X50.676 Y89.032 E0.009607 F375.0
G0 X50.545 Y88.934 E0.009607 F375.0
G0 X50.400 Y88.858 E0.009607 F375.0
G0 X50.244 Y88.806 E0.009607 F375.0
G0 X50.082 Y88.779 E0.009607 F375.0
G0 X50.000 Y88.779 E0.004803 F375.0
G1 E-1 F3000
G0 X50.000 Y91.156 E0.000000 F7500.0
G1 E1 F3000
G92 E0
G0 X50.218 Y91.138 E0.012809 F375.0
G0 X50.218 Y91.138 E0.000000 F375.0
G0 X50.431 Y91.086 E0.012809 F375.0
G0 X50.632 Y91.000 E0.012809 F375.0
G0 X50.817 Y90.883 E0.012809 F375.0
G0 X50.981 Y90.738 E0.012809 F375.0
G0 X51.119 Y90.568 E0.012809 F375.0
G0 X51.229 Y90.379 E0.012809 F375.0
G0 X51.306 Y90.174 E0.012809 F375.0
G0 X51.350 Y89.960 E0.012809 F375.0
G0 X51.359 Y89.741 E0.012809 F375.0
G0 X51.333 Y89.524 E0.012809 F375.0
G0 X51.272 Y89.314 E0.012809 F375.0
G0 X51.178 Y89.116 E0.012809 F375.0
G0 X51.053 Y88.936 E0.012809 F375.0
G0 X50.902 Y88.778 E0.012809 F375.0
G0 X50.727 Y88.646 E0.012809 F375.0
G0 X50.533 Y88.545 E0.012809 F375.0
G0 X50.325 Y88.475 E0.012809 F375.0
G0 X50.109 Y88.440 E0.012809 F375.0
G0 X50.000 Y88.440 E0.006404 F375.0
G1 E-1 F3000
G0 X50.000 Y91.496 E0.000000 F7500.0
G1 E1 F3000
G92 E0
G0 X50.273 Y91.474 E0.016011 F375.0
G0 X50.273 Y91.474 E0.000000 F375.0
G0 X50.538 Y91.408 E0.016011 F375.0
G0 X50.790 Y91.301 E0.016011 F375.0
G0 X51.021 Y91.155 E0.016011 F375.0
G0 X51.226 Y90.974 E0.016011 F375.0
G0 X51.399 Y90.762 E0.016011 F375.0
G0 X51.536 Y90.525 E0.016011 F375.0
G0 X51.633 Y90.269 E0.016011 F375.0
G0 X51.688 Y90.001 E0.016011 F375.0
G0 X51.699 Y89.727 E0.016011 F375.0
G0 X51.666 Y89.456 E0.016011 F375.0
G0 X51.590 Y89.193 E0.016011 F375.0
G0 X51.472 Y88.946 E0.016011 F375.0
G0 X51.317 Y88.721 E0.016011 F375.0
G0 X51.127 Y88.523 E0.016011 F375.0
G0 X50.909 Y88.359 E0.016011 F375.0
G0 X50.666 Y88.232 E0.016011 F375.0
G0 X50.407 Y88.145 E0.016011 F375.0
G0 X50.137 Y88.101 E0.016011 F375.0
G0 X50.000 Y88.101 E0.008006 F375.0
G1 E-1 F3000
G0 X50.000 Y91.836 E0.000000 F7500.0
G1 E1 F3000
G92 E0
G0 X50.327 Y91.810 E0.019213 F375.0
G0 X50.327 Y91.810 E0.000000 F375.0
G0 X50.646 Y91.731 E0.019213 F375.0
G0 X50.948 Y91.602 E0.019213 F375.0
G0 X51.226 Y91.427 E0.019213 F375.0
G0 X51.471 Y91.209 E0.019213 F375.0
G0 X51.679 Y90.955 E0.019213 F375.0
G0 X51.843 Y90.670 E0.019213 F375.0
G0 X51.959 Y90.363 E0.019213 F375.0
G0 X52.025 Y90.042 E0.019213 F375.0
G0 X52.038 Y89.714 E0.019213 F375.0
G0 X51.999 Y89.388 E0.019213 F375.0
G0 X51.907 Y89.073 E0.019213 F375.0
G0 X51.767 Y88.776 E0.019213 F375.0
G0 X51.580 Y88.506 E0.019213 F375.0
G0 X51.353 Y88.269 E0.019213 F375.0
G0 X51.090 Y88.072 E0.019213 F375.0
G0 X50.800 Y87.919 E0.019213 F375.0
G0 X50.488 Y87.815 E0.019213 F375.0
G0 X50.164 Y87.763 E0.019213 F375.0
G0 X50.000 Y87.763 E0.009607 F375.0
G1 E-1 F3000
G0 X50.000 Y92.176 E0.000000 F7500.0
G1 E1 F3000
G92 E0
G0 X50.382 Y92.145 E0.022416 F375.0
G0 X50.382 Y92.145 E0.000000 F375.0
G0 X50.754 Y92.053 E0.022416 F375.0
G0 X51.106 Y91.903 E0.022416 F375.0
G0 X51.430 Y91.699 E0.022416 F375.0
G0 X51.716 Y91.445 E0.022416 F375.0
G0 X51.959 Y91.148 E0.022416 F375.0
G0 X52.150 Y90.816 E0.022416 F375.0
G0 X52.286 Y90.458 E0.022416 F375.0
G0 X52.363 Y90.083 E0.022416 F375.0
G0 X52.378 Y89.700 E0.022416 F375.0
G0 X52.332 Y89.320 E0.022416 F375.0
G0 X52.225 Y88.952 E0.022416 F375.0
G0 X52.061 Y88.606 E0.022416 F375.0
G0 X51.844 Y88.291 E0.022416 F375.0
G0 X51.578 Y88.014 E0.022416 F375.0
G0 X51.272 Y87.784 E0.022416 F375.0
G0 X50.933 Y87.606 E0.022416 F375.0
G0 X50.570 Y87.485 E0.022416 F375.0
G0 X50.192 Y87.424 E0.022416 F375.0
G0 X50.000 Y87.424 E0.011208 F375.0
G1 E-1 F3000
G0 X50.000 Y92.516 E0.000000 F7500.0
G1 E1 F3000
G92 E0
G0 X50.436 Y92.481 E0.025618 F375.0
G0 X50.436 Y92.481 E0.000000 F375.0
G0 X50.861 Y92.376 E0.025618 F375.0
G0 X51.264 Y92.204 E0.025618 F375.0
G0 X51.634 Y91.970 E0.025618 F375.0
G0 X51.962 Y91.680 E0.025618 F375.0
G0 X52.239 Y91.341 E0.025618 F375.0
G0 X52.457 Y90.962 E0.025618 F375.0
G0 X52.613 Y90.553 E0.025618 F375.0
G0 X52.700 Y90.124 E0.025618 F375.0
G0 X52.718 Y89.686 E0.025618 F375.0
G0 X52.665 Y89.252 E0.025618 F375.0
G0 X52.543 Y88.831 E0.025618 F375.0
G0 X52.356 Y88.436 E0.025618 F375.0
G0 X52.107 Y88.076 E0.025618 F375.0
G0 X51.804 Y87.760 E0.025618 F375.0
G0 X51.454 Y87.497 E0.025618 F375.0
G0 X51.066 Y87.294 E0.025618 F375.0
G0 X50.651 Y87.155 E0.025618 F375.0
G0 X50.219 Y87.085 E0.025618 F375.0
G0 X50.000 Y87.085 E0.012809 F375.0
G1 E-1 F3000
G0 X50.000 Y92.856 E0.000000 F7500.0
G1 E1 F3000
G92 E0
G0 X50.491 Y92.816 E0.028820 F375.0
G0 X50.491 Y92.816 E0.000000 F375.0
G0 X50.969 Y92.698 E0.028820 F375.0
G0 X51.422 Y92.505 E0.028820 F375.0
G0 X51.838 Y92.242 E0.028820 F375.0
G0 X52.207 Y91.916 E0.028820 F375.0
G0 X52.518 Y91.534 E0.028820 F375.0
G0 X52.765 Y91.108 E0.028820 F375.0
G0 X52.939 Y90.647 E0.028820 F375.0
G0 X53.038 Y90.165 E0.028820 F375.0
G0 X53.058 Y89.673 E0.028820 F375.0
G0 X52.998 Y89.184 E0.028820 F375.0
G0 X52.861 Y88.711 E0.028820 F375.0
G0 X52.650 Y88.266 E0.028820 F375.0
G0 X52.370 Y87.861 E0.028820 F375.0
G0 X52.029 Y87.505 E0.028820 F375.0
G0 X51.635 Y87.210 E0.028820 F375.0
G0 X51.199 Y86.981 E0.028820 F375.0
G0 X50.732 Y86.825 E0.028820 F375.0
G0 X50.246 Y86.746 E0.028820 F375.0
G0 X50.000 Y86.746 E0.014410 F375.0
G1 E-1 F3000
G0 X50.000 Y93.196 E0.000000 F7500.0
G1 E1 F3000
G92 E0
G0 X50.545 Y93.152 E0.032022 F375.0
G0 X50.545 Y93.152 E0.000000 F375.0
G0 X51.077 Y93.021 E0.032022 F375.0
G0 X51.580 Y92.806 E0.032022 F375.0
G0 X52.043 Y92.514 E0.032022 F375.0
G0 X52.452 Y92.151 E0.032022 F375.0
G0 X52.798 Y91.727 E0.032022 F375.0
G0 X53.072 Y91.253 E0.032022 F375.0
G0 X53.266 Y90.742 E0.032022 F375.0
G0 X53.375 Y90.206 E0.032022 F375.0
G0 X53.397 Y89.659 E0.032022 F375.0
G0 X53.331 Y89.116 E0.032022 F375.0
G0 X53.179 Y88.590 E0.032022 F375.0
G0 X52.944 Y88.096 E0.032022 F375.0
G0 X52.634 Y87.646 E0.032022 F375.0
G0 X52.255 Y87.251 E0.032022 F375.0
G0 X51.817 Y86.922 E0.032022 F375.0
G0 X51.333 Y86.668 E0.032022 F375.0
G0 X50.814 Y86.495 E0.032022 F375.0
G0 X50.274 Y86.407 E0.032022 F375.0
G0 X50.000 Y86.407 E0.016011 F375.0
G1 E-1 F3000
G0 X50.000 Y93.536 E0.000000 F7500.0
G1 E1 F3000
G92 E0
G0 X50.600 Y93.487 E0.035224 F375.0
G0 X50.600 Y93.487 E0.000000 F375.0
G0 X51.184 Y93.343 E0.035224 F375.0
G0 X51.738 Y93.108 E0.035224 F375.0
G0 X52.247 Y92.786 E0.035224 F375.0
G0 X52.697 Y92.387 E0.035224 F375.0
G0 X53.078 Y91.920 E0.035224 F375.0
G0 X53.379 Y91.399 E0.035224 F375.0
G0 X53.592 Y90.836 E0.035224 F375.0
G0 X53.713 Y90.247 E0.035224 F375.0
G0 X53.737 Y89.645 E0.035224 F375.0
G0 X53.664 Y89.048 E0.035224 F375.0
G0 X53.497 Y88.470 E0.035224 F375.0
G0 X53.239 Y87.926 E0.035224 F375.0
G0 X52.897 Y87.431 E0.035224 F375.0
G0 X52.480 Y86.996 E0.035224 F375.0
G0 X51.999 Y86.635 E0.035224 F375.0
G0 X51.466 Y86.355 E0.035224 F375.0
G0 X50.895 Y86.165 E0.035224 F375.0
G0 X50.301 Y86.068 E0.035224 F375.0
G0 X50.000 Y86.068 E0.017612 F375.0
G1 E-1 F3000
G0 X50.000 Y93.876 E0.000000 F7500.0
G1 E1 F3000
G92 E0
G0 X50.654 Y93.823 E0.038427 F375.0
G0 X50.654 Y93.823 E0.000000 F375.0
G0 X51.292 Y93.666 E0.038427 F375.0
G0 X51.896 Y93.409 E0.038427 F375.0
G0 X52.451 Y93.058 E0.038427 F375.0
G0 X52.943 Y92.622 E0.038427 F375.0
G0 X53.358 Y92.114 E0.038427 F375.0
G0 X53.686 Y91.545 E0.038427 F375.0
G0 X53.919 Y90.931 E0.038427 F375.0
G0 X54.050 Y90.288 E0.038427 F375.0
G0 X54.077 Y89.632 E0.038427 F375.0
G0 X53.998 Y88.980 E0.038427 F375.0
G0 X53.815 Y88.349 E0.038427 F375.0
G0 X53.533 Y87.756 E0.038427 F375.0
G0 X53.160 Y87.216 E0.038427 F375.0
G0 X52.706 Y86.742 E0.038427 F375.0
G0 X52.181 Y86.348 E0.038427 F375.0
G0 X51.599 Y86.042 E0.038427 F375.0
G0 X50.976 Y85.834 E0.038427 F375.0
G0 X50.328 Y85.729 E0.038427 F375.0
G0 X50.000 Y85.729 E0.019213 F375.0
G1 E-1 F3000
G0 X50.000 Y94.216 E0.000000 F7500.0
G1 E1 F3000
G92 E0
G0 X50.709 Y94.159 E0.041629 F375.0
G0 X50.709 Y94.159 E0.000000 F375.0
G0 X51.400 Y93.988 E0.041629 F375.0
G0 X52.054 Y93.710 E0.041629 F375.0
G0 X52.655 Y93.329 E0.041629 F375.0
G0 X53.188 Y92.858 E0.041629 F375.0
G0 X53.638 Y92.307 E0.041629 F375.0
G0 X53.993 Y91.691 E0.041629 F375.0
G0 X54.245 Y91.026 E0.041629 F375.0
G0 X54.388 Y90.329 E0.041629 F375.0
G0 X54.416 Y89.618 E0.041629 F375.0
G0 X54.331 Y88.912 E0.041629 F375.0
G0 X54.133 Y88.229 E0.041629 F375.0
G0 X53.828 Y87.586 E0.041629 F375.0
G0 X53.424 Y87.001 E0.041629 F375.0
G0 X52.931 Y86.488 E0.041629 F375.0
G0 X52.362 Y86.060 E0.041629 F375.0
G0 X51.732 Y85.730 E0.041629 F375.0
G0 X51.058 Y85.504 E0.041629 F375.0
G0 X50.356 Y85.390 E0.041629 F375.0
G0 X50.000 Y85.390 E0.020814 F375.0
G1 E-1 F3000
G0 X50.000 Y94.556 E0.000000 F7500.0
G1 E1 F3000
G92 E0
G0 X50.764 Y94.494 E0.044831 F375.0
G0 X50.764 Y94.494 E0.000000 F375.0
G0 X51.507 Y94.311 E0.044831 F375.0
G0 X52.212 Y94.011 E0.044831 F375.0
G0 X52.860 Y93.601 E0.044831 F375.0
G0 X53.433 Y93.093 E0.044831 F375.0
G0 X53.917 Y92.500 E0.044831 F375.0
G0 X54.300 Y91.836 E0.044831 F375.0
G0 X54.572 Y91.120 E0.044831 F375.0
G0 X54.725 Y90.370 E0.044831 F375.0
G0 X54.756 Y89.604 E0.044831 F375.0
G0 X54.664 Y88.844 E0.044831 F375.0
G0 X54.451 Y88.108 E0.044831 F375.0
G0 X54.122 Y87.416 E0.044831 F375.0
G0 X53.687 Y86.785 E0.044831 F375.0
G0 X53.156 Y86.233 E0.044831 F375.0
G0 X52.544 Y85.773 E0.044831 F375.0
G0 X51.866 Y85.417 E0.044831 F375.0
G0 X51.139 Y85.174 E0.044831 F375.0
G0 X50.383 Y85.051 E0.044831 F375.0
G0 X50.000 Y85.051 E0.022416 F375.0
G1 E-1 F3000
G0 X50.000 Y94.896 E0.000000 F7500.0
G1 E1 F3000
G92 E0
G0 X50.818 Y94.830 E0.048033 F375.0
G0 X50.818 Y94.830 E0.000000 F375.0
G0 X51.615 Y94.633 E0.048033 F375.0
G0 X52.370 Y94.312 E0.048033 F375.0
G0 X53.064 Y93.873 E0.048033 F375.0
G0 X53.678 Y93.329 E0.048033 F375.0
G0 X54.197 Y92.693 E0.048033 F375.0
G0 X54.608 Y91.982 E0.048033 F375.0
G0 X54.899 Y91.215 E0.048033 F375.0
G0 X55.063 Y90.411 E0.048033 F375.0
G0 X55.096 Y89.591 E0.048033 F375.0
G0 X54.997 Y88.776 E0.048033 F375.0
G0 X54.769 Y87.987 E0.048033 F375.0
G0 X54.417 Y87.246 E0.048033 F375.0
G0 X53.950 Y86.570 E0.048033 F375.0
G0 X53.382 Y85.979 E0.048033 F375.0
G0 X52.726 Y85.485 E0.048033 F375.0
G0 X51.999 Y85.104 E0.048033 F375.0
G0 X51.221 Y84.844 E0.048033 F375.0
G0 X50.410 Y84.712 E0.048033 F375.0
G0 X50.000 Y84.712 E0.024017 F375.0
G1 E-1 F3000
G0 X50.000 Y95.236 E0.000000 F7500.0
G1 E1 F3000
G92 E0
G0 X50.873 Y95.165 E0.051235 F375.0
G0 X50.873 Y95.165 E0.000000 F375.0
G0 X51.723 Y94.956 E0.051235 F375.0
G0 X52.528 Y94.613 E0.051235 F375.0
G0 X53.268 Y94.145 E0.051235 F375.0
G0 X53.923 Y93.564 E0.051235 F375.0
G0 X54.477 Y92.886 E0.051235 F375.0
G0 X54.915 Y92.128 E0.051235 F375.0
G0 X55.225 Y91.309 E0.051235 F375.0
G0 X55.400 Y90.452 E0.051235 F375.0
G0 X55.436 Y89.577 E0.051235 F375.0
G0 X55.330 Y88.708 E0.051235 F375.0
G0 X55.086 Y87.867 E0.051235 F375.0
G0 X54.711 Y87.076 E0.051235 F375.0
G0 X54.214 Y86.355 E0.051235 F375.0
G0 X53.607 Y85.724 E0.051235 F375.0
G0 X52.907 Y85.198 E0.051235 F375.0
G0 X52.132 Y84.791 E0.051235 F375.0
G0 X51.302 Y84.514 E0.051235 F375.0
G0 X50.438 Y84.374 E0.051235 F375.0
G0 X50.000 Y84.374 E0.025618 F375.0
G1 E-1 F3000
G0 X50.000 Y95.576 E0.000000 F7500.0
G1 E1 F3000
G92 E0
G0 X50.927 Y95.501 E0.054438 F375.0
G0 X50.927 Y95.501 E0.000000 F375.0
G0 X51.830 Y95.278 E0.054438 F375.0
G0 X52.686 Y94.914 E0.054438 F375.0
G0 X53.472 Y94.417 E0.054438 F375.0
G0 X54.169 Y93.800 E0.054438 F375.0
G0 X54.757 Y93.079 E0.054438 F375.0
G0 X55.222 Y92.274 E0.054438 F375.0
G0 X55.552 Y91.404 E0.054438 F375.0
G0 X55.738 Y90.493 E0.054438 F375.0
G0 X55.775 Y89.563 E0.054438 F375.0
G0 X55.663 Y88.640 E0.054438 F375.0
G0 X55.404 Y87.746 E0.054438 F375.0
G0 X55.006 Y86.906 E0.054438 F375.0
G0 X54.477 Y86.140 E0.054438 F375.0
G0 X53.833 Y85.470 E0.054438 F375.0
G0 X53.089 Y84.911 E0.054438 F375.0
G0 X52.266 Y84.478 E0.054438 F375.0
G0 X51.383 Y84.184 E0.054438 F375.0
G0 X50.465 Y84.035 E0.054438 F375.0
G0 X50.000 Y84.035 E0.027219 F375.0
G1 E-1 F3000
G0 X50.000 Y95.916 E0.000000 F7500.0
G1 E1 F3000
G92 E0
G0 X50.982 Y95.837 E0.057640 F375.0
G0 X50.982 Y95.837 E0.000000 F375.0
G0 X51.938 Y95.601 E0.057640 F375.0
G0 X52.844 Y95.215 E0.057640 F375.0
G0 X53.677 Y94.689 E0.057640 F375.0
G0 X54.414 Y94.035 E0.057640 F375.0
G0 X55.037 Y93.272 E0.057640 F375.0
G0 X55.529 Y92.420 E0.057640 F375.0
G0 X55.878 Y91.499 E0.057640 F375.0
G0 X56.075 Y90.534 E0.057640 F375.0
G0 X56.115 Y89.549 E0.057640 F375.0
G0 X55.996 Y88.572 E0.057640 F375.0
G0 X55.722 Y87.626 E0.057640 F375.0
G0 X55.300 Y86.736 E0.057640 F375.0
G0 X54.741 Y85.925 E0.057640 F375.0
G0 X54.058 Y85.215 E0.057640 F375.0
G0 X53.271 Y84.623 E0.057640 F375.0
G0 X52.399 Y84.166 E0.057640 F375.0
G0 X51.465 Y83.854 E0.057640 F375.0
G0 X50.492 Y83.696 E0.057640 F375.0
G0 X50.000 Y83.696 E0.028820 F375.0
G1 E-1 F3000
G0 X50.000 Y96.256 E0.000000 F7500.0
G1 E1 F3000
G92 E0
G0 X51.036 Y96.172 E0.060842 F375.0
G0 X51.036 Y96.172 E0.000000 F375.0
G0 X52.046 Y95.923 E0.060842 F375.0
G0 X53.002 Y95.516 E0.060842 F375.0
G0 X53.881 Y94.960 E0.060842 F375.0
G0 X54.659 Y94.271 E0.060842 F375.0
G0 X55.316 Y93.466 E0.060842 F375.0
G0 X55.836 Y92.565 E0.060842 F375.0
G0 X56.205 Y91.593 E0.060842 F375.0
G0 X56.413 Y90.575 E0.060842 F375.0
G0 X56.455 Y89.536 E0.060842 F375.0
G0 X56.329 Y88.504 E0.060842 F375.0
G0 X56.040 Y87.505 E0.060842 F375.0
G0 X55.595 Y86.566 E0.060842 F375.0
G0 X55.004 Y85.710 E0.060842 F375.0
G0 X54.284 Y84.961 E0.060842 F375.0
G0 X53.453 Y84.336 E0.060842 F375.0
G0 X52.532 Y83.853 E0.060842 F375.0
G0 X51.546 Y83.524 E0.060842 F375.0
G0 X50.520 Y83.357 E0.060842 F375.0
G0 X50.000 Y83.357 E0.030421 F375.0
G1 E-1 F3000
G0 X50.000 Y96.596 E0.000000 F7500.0
G1 E1 F3000
G92 E0
G0 X51.091 Y96.508 E0.064044 F375.0
G0 X51.091 Y96.508 E0.000000 F375.0
G0 X52.153 Y96.246 E0.064044 F375.0
G0 X53.160 Y95.817 E0.064044 F375.0
G0 X54.085 Y95.232 E0.064044 F375.0
G0 X54.904 Y94.506 E0.064044 F375.0
G0 X55.596 Y93.659 E0.064044 F375.0
G0 X56.143 Y92.711 E0.064044 F375.0
G0 X56.532 Y91.688 E0.064044 F375.0
G0 X56.750 Y90.616 E0.064044 F375.0
G0 X56.794 Y89.522 E0.064044 F375.0
G0 X56.663 Y88.436 E0.064044 F375.0
G0 X56.358 Y87.385 E0.064044 F375.0
G0 X55.889 Y86.396 E0.064044 F375.0
G0 X55.267 Y85.495 E0.064044 F375.0
G0 X54.509 Y84.706 E0.064044 F375.0
G0 X53.634 Y84.049 E0.064044 F375.0
G0 X52.665 Y83.540 E0.064044 F375.0
G0 X51.627 Y83.194 E0.064044 F375.0
G0 X50.547 Y83.018 E0.064044 F375.0
G0 X50.000 Y83.018 E0.032022 F375.0
G1 E-1 F3000
G0 X50.000 Y96.936 E0.000000 F7500.0
G1 E1 F3000
G92 E0
G0 X51.145 Y96.843 E0.067247 F375.0
G0 X51.145 Y96.843 E0.000000 F375.0
G0 X52.261 Y96.568 E0.067247 F375.0
G0 X53.318 Y96.118 E0.067247 F375.0
G0 X54.289 Y95.504 E0.067247 F375.0
G0 X55.149 Y94.742 E0.067247 F375.0
G0 X55.876 Y93.852 E0.067247 F375.0
G0 X56.451 Y92.857 E0.067247 F375.0
G0 X56.858 Y91.782 E0.067247 F375.0
G0 X57.088 Y90.657 E0.067247 F375.0
G0 X57.134 Y89.508 E0.067247 F375.0
G0 X56.996 Y88.368 E0.067247 F375.0
G0 X56.676 Y87.264 E0.067247 F375.0
G0 X56.183 Y86.226 E0.067247 F375.0
G0 X55.531 Y85.280 E0.067247 F375.0
G0 X54.735 Y84.452 E0.067247 F375.0
G0 X53.816 Y83.761 E0.067247 F375.0
G0 X52.799 Y83.227 E0.067247 F375.0
G0 X51.709 Y82.863 E0.067247 F375.0
G0 X50.575 Y82.679 E0.067247 F375.0
G0 X50.000 Y82.679 E0.033623 F375.0
G1 E-1 F3000
G0 X50.000 Y97.276 E0.000000 F7500.0
G1 E1 F3000
G92 E0
G0 X51.200 Y97.179 E0.070449 F375.0
G0 X51.200 Y97.179 E0.000000 F375.0
G0 X52.369 Y96.891 E0.070449 F375.0
G0 X53.476 Y96.419 E0.070449 F375.0
G0 X54.494 Y95.776 E0.070449 F375.0
G0 X55.395 Y94.977 E0.070449 F375.0
G0 X56.156 Y94.045 E0.070449 F375.0
G0 X56.758 Y93.003 E0.070449 F375.0
G0 X57.185 Y91.877 E0.070449 F375.0
G0 X57.425 Y90.698 E0.070449 F375.0
G0 X57.474 Y89.495 E0.070449 F375.0
G0 X57.329 Y88.300 E0.070449 F375.0
G0 X56.994 Y87.143 E0.070449 F375.0
G0 X56.478 Y86.056 E0.070449 F375.0
G0 X55.794 Y85.065 E0.070449 F375.0
G0 X54.960 Y84.197 E0.070449 F375.0
G0 X53.998 Y83.474 E0.070449 F375.0
G0 X52.932 Y82.914 E0.070449 F375.0
G0 X51.790 Y82.533 E0.070449 F375.0
G0 X50.602 Y82.340 E0.070449 F375.0
G0 X50.000 Y82.340 E0.035224 F375.0
G1 E-1 F3000
G0 X50.000 Y97.616 E0.000000 F7500.0
G1 E1 F3000
G92 E0
G0 X51.254 Y97.515 E0.073651 F375.0
G0 X51.254 Y97.515 E0.000000 F375.0
G0 X52.476 Y97.213 E0.073651 F375.0
G0 X53.634 Y96.720 E0.073651 F375.0
G0 X54.698 Y96.048 E0.073651 F375.0
G0 X55.640 Y95.213 E0.073651 F375.0
G0 X56.436 Y94.238 E0.073651 F375.0
G0 X57.065 Y93.148 E0.073651 F375.0
G0 X57.511 Y91.972 E0.073651 F375.0
G0 X57.763 Y90.739 E0.073651 F375.0
G0 X57.814 Y89.481 E0.073651 F375.0
G0 X57.662 Y88.232 E0.073651 F375.0
G0 X57.312 Y87.023 E0.073651 F375.0
G0 X56.772 Y85.886 E0.073651 F375.0
G0 X56.057 Y84.850 E0.073651 F375.0
G0 X55.186 Y83.943 E0.073651 F375.0
G0 X54.180 Y83.187 E0.073651 F375.0
G0 X53.065 Y82.602 E0.073651 F375.0
G0 X51.871 Y82.203 E0.073651 F375.0
G0 X50.629 Y82.001 E0.073651 F375.0
G0 X50.000 Y82.001 E0.036825 F375.0
G1 E-1 F3000
G0 X50.000 Y97.956 E0.000000 F7500.0
G1 E1 F3000
G92 E0
G0 X51.309 Y97.850 E0.076853 F375.0
G0 X51.309 Y97.850 E0.000000 F375.0
G0 X52.584 Y97.536 E0.076853 F375.0
G0 X53.792 Y97.021 E0.076853 F375.0
G0 X54.902 Y96.319 E0.076853 F375.0
G0 X55.885 Y95.449 E0.076853 F375.0
G0 X56.716 Y94.431 E0.076853 F375.0
G0 X57.372 Y93.294 E0.076853 F375.0
G0 X57.838 Y92.066 E0.076853 F375.0
G0 X58.101 Y90.779 E0.076853 F375.0
G0 X58.153 Y89.467 E0.076853 F375.0
G0 X57.995 Y88.164 E0.076853 F375.0
G0 X57.630 Y86.902 E0.076853 F375.0
G0 X57.067 Y85.716 E0.076853 F375.0
G0 X56.321 Y84.635 E0.076853 F375.0
G0 X55.411 Y83.688 E0.076853 F375.0
G0 X54.361 Y82.899 E0.076853 F375.0
G0 X53.198 Y82.289 E0.076853 F375.0
G0 X51.953 Y81.873 E0.076853 F375.0
G0 X50.657 Y81.662 E0.076853 F375.0
G0 X50.000 Y81.662 E0.038427 F375.0
G1 E-1 F3000
G0 X50.000 Y98.296 E0.000000 F7500.0
G1 E1 F3000
G92 E0
G0 X51.363 Y98.186 E0.080055 F375.0
G0 X51.363 Y98.186 E0.000000 F375.0
G0 X52.692 Y97.858 E0.080055 F375.0
G0 X53.950 Y97.322 E0.080055 F375.0
G0 X55.106 Y96.591 E0.080055 F375.0
G0 X56.130 Y95.684 E0.080055 F375.0
G0 X56.995 Y94.624 E0.080055 F375.0
G0 X57.679 Y93.440 E0.080055 F375.0
G0 X58.164 Y92.161 E0.080055 F375.0
G0 X58.438 Y90.820 E0.080055 F375.0
G0 X58.493 Y89.454 E0.080055 F375.0
G0 X58.328 Y88.096 E0.080055 F375.0
G0 X57.948 Y86.782 E0.080055 F375.0
G0 X57.361 Y85.546 E0.080055 F375.0
G0 X56.584 Y84.420 E0.080055 F375.0
G0 X55.637 Y83.434 E0.080055 F375.0
G0 X54.543 Y82.612 E0.080055 F375.0
G0 X53.332 Y81.976 E0.080055 F375.0
G0 X52.034 Y81.543 E0.080055 F375.0
G0 X50.684 Y81.323 E0.080055 F375.0
G0 X50.000 Y81.323 E0.040028 F375.0
G1 E-1 F3000
G0 X50.000 Y98.636 E0.000000 F7500.0
G1 E1 F3000
G92 E0
G0 X51.418 Y98.521 E0.083258 F375.0
G0 X51.418 Y98.521 E0.000000 F375.0
G0 X52.799 Y98.181 E0.083258 F375.0
G0 X54.108 Y97.623 E0.083258 F375.0
G0 X55.311 Y96.863 E0.083258 F375.0
G0 X56.375 Y95.920 E0.083258 F375.0
G0 X57.275 Y94.818 E0.083258 F375.0
G0 X57.987 Y93.586 E0.083258 F375.0
G0 X58.491 Y92.255 E0.083258 F375.0
G0 X58.776 Y90.861 E0.083258 F375.0
G0 X58.833 Y89.440 E0.083258 F375.0
G0 X58.661 Y88.028 E0.083258 F375.0
G0 X58.266 Y86.661 E0.083258 F375.0
G0 X57.656 Y85.376 E0.083258 F375.0
G0 X56.848 Y84.205 E0.083258 F375.0
G0 X55.862 Y83.179 E0.083258 F375.0
G0 X54.725 Y82.324 E0.083258 F375.0
G0 X53.465 Y81.663 E0.083258 F375.0
G0 X52.116 Y81.213 E0.083258 F375.0
G0 X50.711 Y80.985 E0.083258 F375.0
G0 X50.000 Y80.985 E0.041629 F375.0
G1 E-1 F3000
G0 X50.000 Y98.976 E0.000000 F7500.0
G1 E1 F3000
G92 E0
G0 X51.473 Y98.857 E0.086460 F375.0
G0 X51.473 Y98.857 E0.000000 F375.0
G0 X52.907 Y98.503 E0.086460 F375.0
G0 X54.266 Y97.924 E0.086460 F375.0
G0 X55.515 Y97.135 E0.086460 F375.0
G0 X56.621 Y96.155 E0.086460 F375.0
G0 X57.555 Y95.011 E0.086460 F375.0
G0 X58.294 Y93.731 E0.086460 F375.0
G0 X58.818 Y92.350 E0.086460 F375.0
G0 X59.113 Y90.902 E0.086460 F375.0
G0 X59.173 Y89.426 E0.086460 F375.0
G0 X58.994 Y87.960 E0.086460 F375.0
G0 X58.583 Y86.541 E0.086460 F375.0
G0 X57.950 Y85.206 E0.086460 F375.0
G0 X57.111 Y83.990 E0.086460 F375.0
G0 X56.087 Y82.925 E0.086460 F375.0
G0 X54.906 Y82.037 E0.086460 F375.0
G0 X53.598 Y81.351 E0.086460 F375.0
G0 X52.197 Y80.883 E0.086460 F375.0
G0 X50.739 Y80.646 E0.086460 F375.0
G0 X50.000 Y80.646 E0.043230 F375.0
G1 E-1 F3000
G0 X59.035 Y88.296 E0.000000 F7500.0
G1 E1 F3000
G92 E0
G0 X59.049 Y88.295 E0.000802 F375.0
G0 X59.049 Y88.295 E0.000000 F375.0
G0 X59.102 Y88.282 E0.003202 F375.0
G0 X59.152 Y88.261 E0.003202 F375.0
G0 X59.199 Y88.231 E0.003202 F375.0
G0 X59.240 Y88.195 E0.003202 F375.0
G0 X59.274 Y88.153 E0.003202 F375.0
G0 X59.302 Y88.105 E0.003202 F375.0
G0 X59.321 Y88.054 E0.003202 F375.0
G0 X59.332 Y88.001 E0.003202 F375.0
G0 X59.334 Y87.946 E0.003202 F375.0
G0 X59.328 Y87.892 E0.003202 F375.0
G0 X59.312 Y87.839 E0.003202 F375.0
G0 X59.289 Y87.790 E0.003202 F375.0
G0 X59.258 Y87.745 E0.003202 F375.0
G0 X59.220 Y87.705 E0.003202 F375.0
G0 X59.176 Y87.672 E0.003202 F375.0
G0 X59.128 Y87.647 E0.003202 F375.0
G0 X59.076 Y87.630 E0.003202 F375.0
G0 X59.022 Y87.621 E0.003202 F375.0
G0 X58.967 Y87.621 E0.003202 F375.0
G0 X58.913 Y87.630 E0.003202 F375.0
G0 X58.900 Y87.634 E0.000802 F375.0
G1 E-1 F3000
G0 X59.076 Y88.633 E0.000000 F7500.0
G1 E1 F3000
G92 E0
G0 X59.104 Y88.631 E0.001604 F375.0
G0 X59.104 Y88.631 E0.000000 F375.0
G0 X59.210 Y88.605 E0.006404 F375.0
G0 X59.310 Y88.562 E0.006404 F375.0
G0 X59.403 Y88.503 E0.006404 F375.0
G0 X59.485 Y88.431 E0.006404 F375.0
G0 X59.554 Y88.346 E0.006404 F375.0
G0 X59.609 Y88.251 E0.006404 F375.0
G0 X59.648 Y88.149 E0.006404 F375.0
G0 X59.670 Y88.042 E0.006404 F375.0
G0 X59.674 Y87.932 E0.006404 F375.0
G0 X59.661 Y87.824 E0.006404 F375.0
G0 X59.630 Y87.719 E0.006404 F375.0
G0 X59.583 Y87.620 E0.006404 F375.0
G0 X59.521 Y87.530 E0.006404 F375.0
G0 X59.445 Y87.451 E0.006404 F375.0
G0 X59.358 Y87.385 E0.006404 F375.0
G0 X59.261 Y87.334 E0.006404 F375.0
G0 X59.157 Y87.299 E0.006404 F375.0
G0 X59.049 Y87.282 E0.006404 F375.0
G0 X58.940 Y87.282 E0.006404 F375.0
G0 X58.832 Y87.299 E0.006404 F375.0
G0 X58.806 Y87.308 E0.001604 F375.0
G1 E-1 F3000
G0 X59.117 Y88.970 E0.000000 F7500.0
G1 E1 F3000
G92 E0
G0 X59.158 Y88.966 E0.002406 F375.0
G0 X59.158 Y88.966 E0.000000 F375.0
G0 X59.317 Y88.927 E0.009607 F375.0
G0 X59.468 Y88.863 E0.009607 F375.0
G0 X59.607 Y88.775 E0.009607 F375.0
G0 X59.730 Y88.666 E0.009607 F375.0
G0 X59.834 Y88.539 E0.009607 F375.0
G0 X59.916 Y88.397 E0.009607 F375.0
G0 X59.974 Y88.243 E0.009607 F375.0
G0 X60.007 Y88.083 E0.009607 F375.0
G0 X60.014 Y87.919 E0.009607 F375.0
G0 X59.994 Y87.756 E0.009607 F375.0
G0 X59.948 Y87.598 E0.009607 F375.0
G0 X59.878 Y87.450 E0.009607 F375.0
G0 X59.785 Y87.315 E0.009607 F375.0
G0 X59.671 Y87.196 E0.009607 F375.0
G0 X59.540 Y87.098 E0.009607 F375.0
G0 X59.394 Y87.021 E0.009607 F375.0
G0 X59.239 Y86.969 E0.009607 F375.0
G0 X59.077 Y86.943 E0.009607 F375.0
G0 X58.912 Y86.943 E0.009607 F375.0
G0 X58.750 Y86.969 E0.009607 F375.0
G0 X58.711 Y86.982 E0.002406 F375.0
G1 E-1 F3000
G0 X59.158 Y89.306 E0.000000 F7500.0
G1 E1 F3000
G92 E0
G0 X59.213 Y89.302 E0.003207 F375.0
G0 X59.213 Y89.302 E0.000000 F375.0
G0 X59.425 Y89.250 E0.012809 F375.0
G0 X59.627 Y89.164 E0.012809 F375.0
G0 X59.811 Y89.047 E0.012809 F375.0
G0 X59.975 Y88.902 E0.012809 F375.0
G0 X60.114 Y88.732 E0.012809 F375.0
G0 X60.223 Y88.543 E0.012809 F375.0
G0 X60.301 Y88.338 E0.012809 F375.0
G0 X60.345 Y88.124 E0.012809 F375.0
G0 X60.353 Y87.905 E0.012809 F375.0
G0 X60.327 Y87.688 E0.012809 F375.0
G0 X60.266 Y87.477 E0.012809 F375.0
G0 X60.172 Y87.280 E0.012809 F375.0
G0 X60.048 Y87.100 E0.012809 F375.0
G0 X59.896 Y86.942 E0.012809 F375.0
G0 X59.721 Y86.810 E0.012809 F375.0
G0 X59.528 Y86.709 E0.012809 F375.0
G0 X59.320 Y86.639 E0.012809 F375.0
G0 X59.104 Y86.604 E0.012809 F375.0
G0 X58.885 Y86.604 E0.012809 F375.0
G0 X58.669 Y86.639 E0.012809 F375.0
G0 X58.617 Y86.657 E0.003207 F375.0
G1 E-1 F3000
G0 X59.164 Y89.646 E0.000000 F7500.0
G1 E1 F3000
G92 E0
G0 X59.267 Y89.638 E0.006076 F375.0
G0 X59.267 Y89.638 E0.000000 F375.0
G0 X59.533 Y89.572 E0.016011 F375.0
G0 X59.785 Y89.465 E0.016011 F375.0
G0 X60.016 Y89.319 E0.016011 F375.0
G0 X60.221 Y89.137 E0.016011 F375.0
G0 X60.394 Y88.925 E0.016011 F375.0
G0 X60.530 Y88.688 E0.016011 F375.0
G0 X60.627 Y88.433 E0.016011 F375.0
G0 X60.682 Y88.165 E0.016011 F375.0
G0 X60.693 Y87.891 E0.016011 F375.0
G0 X60.660 Y87.620 E0.016011 F375.0
G0 X60.584 Y87.357 E0.016011 F375.0
G0 X60.467 Y87.110 E0.016011 F375.0
G0 X60.311 Y86.885 E0.016011 F375.0
G0 X60.122 Y86.687 E0.016011 F375.0
G0 X59.903 Y86.523 E0.016011 F375.0
G0 X59.661 Y86.396 E0.016011 F375.0
G0 X59.401 Y86.309 E0.016011 F375.0
G0 X59.131 Y86.265 E0.016011 F375.0
G0 X58.858 Y86.265 E0.016011 F375.0
G0 X58.588 Y86.309 E0.016011 F375.0
G0 X58.489 Y86.342 E0.006076 F375.0
G1 E-1 F3000
G0 X59.150 Y89.987 E0.000000 F7500.0
G1 E1 F3000
G92 E0
G0 X59.322 Y89.973 E0.010085 F375.0
G0 X59.322 Y89.973 E0.000000 F375.0
G0 X59.640 Y89.895 E0.019213 F375.0
G0 X59.943 Y89.766 E0.019213 F375.0
G0 X60.220 Y89.591 E0.019213 F375.0
G0 X60.466 Y89.373 E0.019213 F375.0
G0 X60.673 Y89.119 E0.019213 F375.0
G0 X60.838 Y88.834 E0.019213 F375.0
G0 X60.954 Y88.527 E0.019213 F375.0
G0 X61.020 Y88.206 E0.019213 F375.0
G0 X61.033 Y87.878 E0.019213 F375.0
G0 X60.993 Y87.552 E0.019213 F375.0
G0 X60.902 Y87.236 E0.019213 F375.0
G0 X60.761 Y86.940 E0.019213 F375.0
G0 X60.575 Y86.669 E0.019213 F375.0
G0 X60.347 Y86.433 E0.019213 F375.0
G0 X60.085 Y86.235 E0.019213 F375.0
G0 X59.794 Y86.083 E0.019213 F375.0
G0 X59.483 Y85.979 E0.019213 F375.0
G0 X59.159 Y85.926 E0.019213 F375.0
G0 X58.830 Y85.926 E0.019213 F375.0
G0 X58.506 Y85.979 E0.019213 F375.0
G0 X58.343 Y86.034 E0.010085 F375.0
G1 E-1 F3000
G0 X59.136 Y90.328 E0.000000 F7500.0
G1 E1 F3000
G92 E0
G0 X59.376 Y90.309 E0.014094 F375.0
G0 X59.376 Y90.309 E0.000000 F375.0
G0 X59.748 Y90.217 E0.022416 F375.0
G0 X60.101 Y90.067 E0.022416 F375.0
G0 X60.424 Y89.862 E0.022416 F375.0
G0 X60.711 Y89.608 E0.022416 F375.0
G0 X60.953 Y89.312 E0.022416 F375.0
G0 X61.145 Y88.980 E0.022416 F375.0
G0 X61.281 Y88.622 E0.022416 F375.0
G0 X61.357 Y88.247 E0.022416 F375.0
G0 X61.373 Y87.864 E0.022416 F375.0
G0 X61.326 Y87.484 E0.022416 F375.0
G0 X61.220 Y87.116 E0.022416 F375.0
G0 X61.056 Y86.770 E0.022416 F375.0
G0 X60.838 Y86.454 E0.022416 F375.0
G0 X60.573 Y86.178 E0.022416 F375.0
G0 X60.267 Y85.948 E0.022416 F375.0
G0 X59.927 Y85.770 E0.022416 F375.0
G0 X59.564 Y85.649 E0.022416 F375.0
G0 X59.186 Y85.587 E0.022416 F375.0
G0 X58.803 Y85.587 E0.022416 F375.0
G0 X58.425 Y85.649 E0.022416 F375.0
G0 X58.196 Y85.725 E0.014094 F375.0
G1 E-1 F3000
G0 X59.122 Y90.669 E0.000000 F7500.0
G1 E1 F3000
G92 E0
G0 X59.431 Y90.644 E0.018103 F375.0
G0 X59.431 Y90.644 E0.000000 F375.0
G0 X59.856 Y90.540 E0.025618 F375.0
G0 X60.259 Y90.368 E0.025618 F375.0
G0 X60.628 Y90.134 E0.025618 F375.0
G0 X60.956 Y89.844 E0.025618 F375.0
G0 X61.233 Y89.505 E0.025618 F375.0
G0 X61.452 Y89.126 E0.025618 F375.0
G0 X61.607 Y88.716 E0.025618 F375.0
G0 X61.695 Y88.288 E0.025618 F375.0
G0 X61.712 Y87.850 E0.025618 F375.0
G0 X61.660 Y87.416 E0.025618 F375.0
G0 X61.538 Y86.995 E0.025618 F375.0
G0 X61.350 Y86.600 E0.025618 F375.0
G0 X61.101 Y86.239 E0.025618 F375.0
G0 X60.798 Y85.924 E0.025618 F375.0
G0 X60.448 Y85.661 E0.025618 F375.0
G0 X60.061 Y85.457 E0.025618 F375.0
G0 X59.645 Y85.319 E0.025618 F375.0
G0 X59.213 Y85.249 E0.025618 F375.0
G0 X58.776 Y85.249 E0.025618 F375.0
G0 X58.344 Y85.319 E0.025618 F375.0
G0 X58.050 Y85.417 E0.018103 F375.0
G1 E-1 F3000
G0 X59.091 Y91.012 E0.000000 F7500.0
G1 E1 F3000
G92 E0
G0 X59.485 Y90.980 E0.023169 F375.0
G0 X59.485 Y90.980 E0.000000 F375.0
G0 X59.963 Y90.862 E0.028820 F375.0
G0 X60.417 Y90.669 E0.028820 F375.0
G0 X60.833 Y90.406 E0.028820 F375.0
G0 X61.201 Y90.079 E0.028820 F375.0
G0 X61.513 Y89.698 E0.028820 F375.0
G0 X61.759 Y89.271 E0.028820 F375.0
G0 X61.934 Y88.811 E0.028820 F375.0
G0 X62.032 Y88.329 E0.028820 F375.0
G0 X62.052 Y87.836 E0.028820 F375.0
G0 X61.993 Y87.348 E0.028820 F375.0
G0 X61.856 Y86.875 E0.028820 F375.0
G0 X61.645 Y86.430 E0.028820 F375.0
G0 X61.365 Y86.024 E0.028820 F375.0
G0 X61.024 Y85.669 E0.028820 F375.0
G0 X60.630 Y85.373 E0.028820 F375.0
G0 X60.194 Y85.145 E0.028820 F375.0
G0 X59.727 Y84.989 E0.028820 F375.0
G0 X59.241 Y84.910 E0.028820 F375.0
G0 X58.748 Y84.910 E0.028820 F375.0
G0 X58.262 Y84.989 E0.028820 F375.0
G0 X57.887 Y85.114 E0.023169 F375.0
G1 E-1 F3000
G0 X59.020 Y91.358 E0.000000 F7500.0
G1 E1 F3000
G92 E0
G0 X59.540 Y91.316 E0.030515 F375.0
G0 X59.540 Y91.316 E0.000000 F375.0
G0 X60.071 Y91.185 E0.032022 F375.0
G0 X60.575 Y90.970 E0.032022 F375.0
G0 X61.037 Y90.678 E0.032022 F375.0
G0 X61.447 Y90.315 E0.032022 F375.0
G0 X61.793 Y89.891 E0.032022 F375.0
G0 X62.066 Y89.417 E0.032022 F375.0
G0 X62.260 Y88.906 E0.032022 F375.0
G0 X62.370 Y88.370 E0.032022 F375.0
G0 X62.392 Y87.823 E0.032022 F375.0
G0 X62.326 Y87.280 E0.032022 F375.0
G0 X62.174 Y86.754 E0.032022 F375.0
G0 X61.939 Y86.260 E0.032022 F375.0
G0 X61.628 Y85.809 E0.032022 F375.0
G0 X61.249 Y85.415 E0.032022 F375.0
G0 X60.812 Y85.086 E0.032022 F375.0
G0 X60.327 Y84.832 E0.032022 F375.0
G0 X59.808 Y84.658 E0.032022 F375.0
G0 X59.268 Y84.571 E0.032022 F375.0
G0 X58.721 Y84.571 E0.032022 F375.0
G0 X58.181 Y84.658 E0.032022 F375.0
G0 X57.686 Y84.824 E0.030515 F375.0
G1 E-1 F3000
G0 X58.951 Y91.696 E0.000000 F7500.0
G1 E1 F3000
G92 E0
G0 X58.994 Y91.700 E0.002551 F375.0
G0 X59.594 Y91.651 E0.035224 F375.0
G0 X59.594 Y91.651 E0.000000 F375.0
G0 X60.179 Y91.507 E0.035224 F375.0
G0 X60.733 Y91.271 E0.035224 F375.0
G0 X61.241 Y90.950 E0.035224 F375.0
G0 X61.692 Y90.550 E0.035224 F375.0
G0 X62.072 Y90.084 E0.035224 F375.0
G0 X62.373 Y89.563 E0.035224 F375.0
G0 X62.587 Y89.000 E0.035224 F375.0
G0 X62.707 Y88.410 E0.035224 F375.0
G0 X62.731 Y87.809 E0.035224 F375.0
G0 X62.659 Y87.212 E0.035224 F375.0
G0 X62.491 Y86.633 E0.035224 F375.0
G0 X62.233 Y86.090 E0.035224 F375.0
G0 X61.892 Y85.594 E0.035224 F375.0
G0 X61.475 Y85.160 E0.035224 F375.0
G0 X60.993 Y84.799 E0.035224 F375.0
G0 X60.460 Y84.519 E0.035224 F375.0
G0 X59.890 Y84.328 E0.035224 F375.0
G0 X59.295 Y84.232 E0.035224 F375.0
G0 X58.694 Y84.232 E0.035224 F375.0
G0 X58.099 Y84.328 E0.035224 F375.0
G0 X57.529 Y84.519 E0.035224 F375.0
G0 X57.490 Y84.539 E0.002551 F375.0
G1 E-1 F3000
G0 X58.883 Y92.031 E0.000000 F7500.0
G1 E1 F3000
G92 E0
G0 X58.994 Y92.040 E0.006561 F375.0
G0 X59.649 Y91.987 E0.038427 F375.0
G0 X59.649 Y91.987 E0.000000 F375.0
G0 X60.286 Y91.830 E0.038427 F375.0
G0 X60.891 Y91.572 E0.038427 F375.0
G0 X61.446 Y91.221 E0.038427 F375.0
G0 X61.937 Y90.786 E0.038427 F375.0
G0 X62.352 Y90.277 E0.038427 F375.0
G0 X62.681 Y89.709 E0.038427 F375.0
G0 X62.913 Y89.095 E0.038427 F375.0
G0 X63.045 Y88.451 E0.038427 F375.0
G0 X63.071 Y87.795 E0.038427 F375.0
G0 X62.992 Y87.144 E0.038427 F375.0
G0 X62.809 Y86.513 E0.038427 F375.0
G0 X62.528 Y85.920 E0.038427 F375.0
G0 X62.155 Y85.379 E0.038427 F375.0
G0 X61.700 Y84.906 E0.038427 F375.0
G0 X61.175 Y84.511 E0.038427 F375.0
G0 X60.594 Y84.206 E0.038427 F375.0
G0 X59.971 Y83.998 E0.038427 F375.0
G0 X59.323 Y83.893 E0.038427 F375.0
G0 X58.666 Y83.893 E0.038427 F375.0
G0 X58.018 Y83.998 E0.038427 F375.0
G0 X57.395 Y84.206 E0.038427 F375.0
G0 X57.296 Y84.258 E0.006561 F375.0
G1 E-1 F3000
G0 X58.812 Y92.365 E0.000000 F7500.0
G1 E1 F3000
G92 E0
G0 X58.994 Y92.380 E0.010721 F375.0
G0 X59.703 Y92.322 E0.041629 F375.0
G0 X59.703 Y92.322 E0.000000 F375.0
G0 X60.394 Y92.152 E0.041629 F375.0
G0 X61.049 Y91.873 E0.041629 F375.0
G0 X61.650 Y91.493 E0.041629 F375.0
G0 X62.182 Y91.022 E0.041629 F375.0
G0 X62.632 Y90.471 E0.041629 F375.0
G0 X62.988 Y89.855 E0.041629 F375.0
G0 X63.240 Y89.189 E0.041629 F375.0
G0 X63.382 Y88.492 E0.041629 F375.0
G0 X63.411 Y87.782 E0.041629 F375.0
G0 X63.325 Y87.076 E0.041629 F375.0
G0 X63.127 Y86.392 E0.041629 F375.0
G0 X62.822 Y85.750 E0.041629 F375.0
G0 X62.418 Y85.164 E0.041629 F375.0
G0 X61.925 Y84.651 E0.041629 F375.0
G0 X61.357 Y84.224 E0.041629 F375.0
G0 X60.727 Y83.893 E0.041629 F375.0
G0 X60.052 Y83.668 E0.041629 F375.0
G0 X59.350 Y83.554 E0.041629 F375.0
G0 X58.639 Y83.554 E0.041629 F375.0
G0 X57.937 Y83.668 E0.041629 F375.0
G0 X57.262 Y83.893 E0.041629 F375.0
G0 X57.100 Y83.979 E0.010721 F375.0
G1 E-1 F3000
G0 X58.687 Y92.695 E0.000000 F7500.0
G1 E1 F3000
G92 E0
G0 X58.994 Y92.720 E0.018067 F375.0
G0 X59.758 Y92.658 E0.044831 F375.0
G0 X59.758 Y92.658 E0.000000 F375.0
G0 X60.502 Y92.475 E0.044831 F375.0
G0 X61.207 Y92.174 E0.044831 F375.0
G0 X61.854 Y91.765 E0.044831 F375.0
G0 X62.427 Y91.257 E0.044831 F375.0
G0 X62.912 Y90.664 E0.044831 F375.0
G0 X63.295 Y90.000 E0.044831 F375.0
G0 X63.567 Y89.284 E0.044831 F375.0
G0 X63.720 Y88.533 E0.044831 F375.0
G0 X63.751 Y87.768 E0.044831 F375.0
G0 X63.658 Y87.008 E0.044831 F375.0
G0 X63.445 Y86.272 E0.044831 F375.0
G0 X63.117 Y85.580 E0.044831 F375.0
G0 X62.682 Y84.949 E0.044831 F375.0
G0 X62.151 Y84.397 E0.044831 F375.0
G0 X61.539 Y83.937 E0.044831 F375.0
G0 X60.860 Y83.581 E0.044831 F375.0
G0 X60.134 Y83.338 E0.044831 F375.0
G0 X59.377 Y83.215 E0.044831 F375.0
G0 X58.611 Y83.215 E0.044831 F375.0
G0 X57.855 Y83.338 E0.044831 F375.0
G0 X57.129 Y83.581 E0.044831 F375.0
G0 X56.855 Y83.724 E0.018067 F375.0
G1 E-1 F3000
G0 X58.562 Y93.025 E0.000000 F7500.0
G1 E1 F3000
G92 E0
G0 X58.994 Y93.060 E0.025413 F375.0
G0 X59.813 Y92.994 E0.048033 F375.0
G0 X59.813 Y92.994 E0.000000 F375.0
G0 X60.609 Y92.797 E0.048033 F375.0
G0 X61.365 Y92.476 E0.048033 F375.0
G0 X62.058 Y92.037 E0.048033 F375.0
G0 X62.673 Y91.493 E0.048033 F375.0
G0 X63.192 Y90.857 E0.048033 F375.0
G0 X63.602 Y90.146 E0.048033 F375.0
G0 X63.893 Y89.379 E0.048033 F375.0
G0 X64.057 Y88.574 E0.048033 F375.0
G0 X64.090 Y87.754 E0.048033 F375.0
G0 X63.991 Y86.940 E0.048033 F375.0
G0 X63.763 Y86.151 E0.048033 F375.0
G0 X63.411 Y85.410 E0.048033 F375.0
G0 X62.945 Y84.734 E0.048033 F375.0
G0 X62.376 Y84.142 E0.048033 F375.0
G0 X61.720 Y83.649 E0.048033 F375.0
G0 X60.994 Y83.268 E0.048033 F375.0
G0 X60.215 Y83.008 E0.048033 F375.0
G0 X59.405 Y82.876 E0.048033 F375.0
G0 X58.584 Y82.876 E0.048033 F375.0
G0 X57.774 Y83.008 E0.048033 F375.0
G0 X56.995 Y83.268 E0.048033 F375.0
G0 X56.611 Y83.470 E0.025413 F375.0
G1 E-1 F3000
G0 X58.437 Y93.355 E0.000000 F7500.0
G1 E1 F3000
G92 E0
G0 X58.994 Y93.400 E0.032759 F375.0
G0 X59.867 Y93.329 E0.051235 F375.0
G0 X59.867 Y93.329 E0.000000 F375.0
G0 X60.717 Y93.120 E0.051235 F375.0
G0 X61.523 Y92.777 E0.051235 F375.0
G0 X62.263 Y92.309 E0.051235 F375.0
G0 X62.918 Y91.728 E0.051235 F375.0
G0 X63.472 Y91.050 E0.051235 F375.0
G0 X63.909 Y90.292 E0.051235 F375.0
G0 X64.220 Y89.473 E0.051235 F375.0
G0 X64.395 Y88.615 E0.051235 F375.0
G0 X64.430 Y87.741 E0.051235 F375.0
G0 X64.325 Y86.872 E0.051235 F375.0
G0 X64.081 Y86.031 E0.051235 F375.0
G0 X63.706 Y85.240 E0.051235 F375.0
G0 X63.208 Y84.519 E0.051235 F375.0
G0 X62.602 Y83.888 E0.051235 F375.0
G0 X61.902 Y83.362 E0.051235 F375.0
G0 X61.127 Y82.955 E0.051235 F375.0
G0 X60.296 Y82.678 E0.051235 F375.0
G0 X59.432 Y82.537 E0.051235 F375.0
G0 X58.557 Y82.537 E0.051235 F375.0
G0 X57.693 Y82.678 E0.051235 F375.0
G0 X56.862 Y82.955 E0.051235 F375.0
G0 X56.367 Y83.215 E0.032759 F375.0
G1 E-1 F3000
G0 X58.311 Y93.685 E0.000000 F7500.0
G1 E1 F3000
G92 E0
G0 X58.994 Y93.740 E0.040105 F375.0
G0 X59.922 Y93.665 E0.054438 F375.0
G0 X59.922 Y93.665 E0.000000 F375.0
G0 X60.825 Y93.442 E0.054438 F375.0
G0 X61.681 Y93.078 E0.054438 F375.0
G0 X62.467 Y92.580 E0.054438 F375.0
G0 X63.163 Y91.964 E0.054438 F375.0
G0 X63.751 Y91.243 E0.054438 F375.0
G0 X64.216 Y90.438 E0.054438 F375.0
G0 X64.546 Y89.568 E0.054438 F375.0
G0 X64.732 Y88.656 E0.054438 F375.0
G0 X64.770 Y87.727 E0.054438 F375.0
G0 X64.658 Y86.804 E0.054438 F375.0
G0 X64.399 Y85.910 E0.054438 F375.0
G0 X64.000 Y85.070 E0.054438 F375.0
G0 X63.472 Y84.304 E0.054438 F375.0
G0 X62.827 Y83.633 E0.054438 F375.0
G0 X62.084 Y83.074 E0.054438 F375.0
G0 X61.260 Y82.642 E0.054438 F375.0
G0 X60.378 Y82.348 E0.054438 F375.0
G0 X59.460 Y82.198 E0.054438 F375.0
G0 X58.529 Y82.198 E0.054438 F375.0
G0 X57.611 Y82.348 E0.054438 F375.0
G0 X56.729 Y82.642 E0.054438 F375.0
G0 X56.122 Y82.961 E0.040105 F375.0
G1 E-1 F3000
G0 X58.133 Y94.010 E0.000000 F7500.0
G1 E1 F3000
G92 E0
G0 X58.994 Y94.080 E0.050597 F375.0
G0 X59.976 Y94.000 E0.057640 F375.0
G0 X59.976 Y94.000 E0.000000 F375.0
G0 X60.932 Y93.765 E0.057640 F375.0
G0 X61.839 Y93.379 E0.057640 F375.0
G0 X62.671 Y92.852 E0.057640 F375.0
G0 X63.408 Y92.199 E0.057640 F375.0
G0 X64.031 Y91.436 E0.057640 F375.0
G0 X64.524 Y90.583 E0.057640 F375.0
G0 X64.873 Y89.662 E0.057640 F375.0
G0 X65.070 Y88.697 E0.057640 F375.0
G0 X65.110 Y87.713 E0.057640 F375.0
G0 X64.991 Y86.736 E0.057640 F375.0
G0 X64.717 Y85.790 E0.057640 F375.0
G0 X64.295 Y84.900 E0.057640 F375.0
G0 X63.735 Y84.089 E0.057640 F375.0
G0 X63.053 Y83.379 E0.057640 F375.0
G0 X62.265 Y82.787 E0.057640 F375.0
G0 X61.393 Y82.329 E0.057640 F375.0
G0 X60.459 Y82.018 E0.057640 F375.0
G0 X59.487 Y81.860 E0.057640 F375.0
G0 X58.502 Y81.860 E0.057640 F375.0
G0 X57.530 Y82.018 E0.057640 F375.0
G0 X56.596 Y82.329 E0.057640 F375.0
G0 X55.830 Y82.731 E0.050597 F375.0
G1 E-1 F3000
G0 X57.946 Y94.333 E0.000000 F7500.0
G1 E1 F3000
G92 E0
G0 X57.958 Y94.336 E0.000722 F375.0
G0 X58.994 Y94.420 E0.060842 F375.0
G0 X60.031 Y94.336 E0.060842 F375.0
G0 X60.031 Y94.336 E0.000000 F375.0
G0 X61.040 Y94.087 E0.060842 F375.0
G0 X61.997 Y93.680 E0.060842 F375.0
G0 X62.875 Y93.124 E0.060842 F375.0
G0 X63.653 Y92.435 E0.060842 F375.0
G0 X64.311 Y91.629 E0.060842 F375.0
G0 X64.831 Y90.729 E0.060842 F375.0
G0 X65.199 Y89.757 E0.060842 F375.0
G0 X65.407 Y88.738 E0.060842 F375.0
G0 X65.449 Y87.700 E0.060842 F375.0
G0 X65.324 Y86.668 E0.060842 F375.0
G0 X65.035 Y85.669 E0.060842 F375.0
G0 X64.589 Y84.730 E0.060842 F375.0
G0 X63.998 Y83.874 E0.060842 F375.0
G0 X63.278 Y83.124 E0.060842 F375.0
G0 X62.447 Y82.500 E0.060842 F375.0
G0 X61.527 Y82.017 E0.060842 F375.0
G0 X60.540 Y81.687 E0.060842 F375.0
G0 X59.514 Y81.521 E0.060842 F375.0
G0 X58.475 Y81.521 E0.060842 F375.0
G0 X57.448 Y81.687 E0.060842 F375.0
G0 X56.462 Y82.017 E0.060842 F375.0
G0 X55.542 Y82.500 E0.060842 F375.0
G0 X55.532 Y82.507 E0.000722 F375.0
G1 E-1 F3000
G0 X57.770 Y94.639 E0.000000 F7500.0
G1 E1 F3000
G92 E0
G0 X57.904 Y94.672 E0.008068 F375.0
G0 X58.994 Y94.760 E0.064044 F375.0
G0 X60.085 Y94.672 E0.064044 F375.0
G0 X60.085 Y94.672 E0.000000 F375.0
G0 X61.148 Y94.410 E0.064044 F375.0
G0 X62.155 Y93.981 E0.064044 F375.0
G0 X63.080 Y93.396 E0.064044 F375.0
G0 X63.899 Y92.670 E0.064044 F375.0
G0 X64.591 Y91.823 E0.064044 F375.0
G0 X65.138 Y90.875 E0.064044 F375.0
G0 X65.526 Y89.852 E0.064044 F375.0
G0 X65.745 Y88.779 E0.064044 F375.0
G0 X65.789 Y87.686 E0.064044 F375.0
G0 X65.657 Y86.600 E0.064044 F375.0
G0 X65.353 Y85.548 E0.064044 F375.0
G0 X64.883 Y84.560 E0.064044 F375.0
G0 X64.262 Y83.659 E0.064044 F375.0
G0 X63.504 Y82.870 E0.064044 F375.0
G0 X62.629 Y82.212 E0.064044 F375.0
G0 X61.660 Y81.704 E0.064044 F375.0
G0 X60.622 Y81.357 E0.064044 F375.0
G0 X59.542 Y81.182 E0.064044 F375.0
G0 X58.447 Y81.182 E0.064044 F375.0
G0 X57.367 Y81.357 E0.064044 F375.0
G0 X56.329 Y81.704 E0.064044 F375.0
G0 X55.360 Y82.212 E0.064044 F375.0
G0 X55.250 Y82.295 E0.008068 F375.0
G1 E-1 F3000
G0 X57.593 Y94.944 E0.000000 F7500.0
G1 E1 F3000
G92 E0
G0 X57.849 Y95.007 E0.015413 F375.0
G0 X58.994 Y95.100 E0.067247 F375.0
G0 X60.140 Y95.007 E0.067247 F375.0
G0 X60.140 Y95.007 E0.000000 F375.0
G0 X61.255 Y94.732 E0.067247 F375.0
G0 X62.313 Y94.282 E0.067247 F375.0
G0 X63.284 Y93.668 E0.067247 F375.0
G0 X64.144 Y92.906 E0.067247 F375.0
G0 X64.871 Y92.016 E0.067247 F375.0
G0 X65.445 Y91.021 E0.067247 F375.0
G0 X65.853 Y89.946 E0.067247 F375.0
G0 X66.082 Y88.820 E0.067247 F375.0
G0 X66.129 Y87.672 E0.067247 F375.0
G0 X65.990 Y86.531 E0.067247 F375.0
G0 X65.670 Y85.428 E0.067247 F375.0
G0 X65.178 Y84.390 E0.067247 F375.0
G0 X64.525 Y83.444 E0.067247 F375.0
G0 X63.729 Y82.615 E0.067247 F375.0
G0 X62.811 Y81.925 E0.067247 F375.0
G0 X61.793 Y81.391 E0.067247 F375.0
G0 X60.703 Y81.027 E0.067247 F375.0
G0 X59.569 Y80.843 E0.067247 F375.0
G0 X58.420 Y80.843 E0.067247 F375.0
G0 X57.286 Y81.027 E0.067247 F375.0
G0 X56.196 Y81.391 E0.067247 F375.0
G0 X55.178 Y81.925 E0.067247 F375.0
G0 X54.968 Y82.083 E0.015413 F375.0
G1 E-1 F3000
G0 X57.369 Y95.238 E0.000000 F7500.0
G1 E1 F3000
G92 E0
G0 X57.795 Y95.343 E0.025627 F375.0
G0 X58.994 Y95.440 E0.070449 F375.0
G0 X60.194 Y95.343 E0.070449 F375.0
G0 X60.194 Y95.343 E0.000000 F375.0
G0 X61.363 Y95.055 E0.070449 F375.0
G0 X62.471 Y94.583 E0.070449 F375.0
G0 X63.488 Y93.940 E0.070449 F375.0
G0 X64.389 Y93.141 E0.070449 F375.0
G0 X65.150 Y92.209 E0.070449 F375.0
G0 X65.752 Y91.166 E0.070449 F375.0
G0 X66.179 Y90.041 E0.070449 F375.0
G0 X66.420 Y88.861 E0.070449 F375.0
G0 X66.468 Y87.658 E0.070449 F375.0
G0 X66.323 Y86.463 E0.070449 F375.0
G0 X65.988 Y85.307 E0.070449 F375.0
G0 X65.472 Y84.220 E0.070449 F375.0
G0 X64.789 Y83.229 E0.070449 F375.0
G0 X63.955 Y82.361 E0.070449 F375.0
G0 X62.992 Y81.638 E0.070449 F375.0
G0 X61.926 Y81.078 E0.070449 F375.0
G0 X60.785 Y80.697 E0.070449 F375.0
G0 X59.596 Y80.504 E0.070449 F375.0
G0 X58.393 Y80.504 E0.070449 F375.0
G0 X57.204 Y80.697 E0.070449 F375.0
G0 X56.063 Y81.078 E0.070449 F375.0
G0 X54.997 Y81.638 E0.070449 F375.0
G0 X54.647 Y81.901 E0.025627 F375.0
G1 E-1 F3000
G0 X57.132 Y95.529 E0.000000 F7500.0
G1 E1 F3000
G92 E0
G0 X57.740 Y95.678 E0.036639 F375.0
G0 X58.994 Y95.780 E0.073651 F375.0
G0 X60.249 Y95.678 E0.073651 F375.0
G0 X60.249 Y95.678 E0.000000 F375.0
G0 X61.471 Y95.377 E0.073651 F375.0
G0 X62.629 Y94.884 E0.073651 F375.0
G0 X63.692 Y94.211 E0.073651 F375.0
G0 X64.634 Y93.377 E0.073651 F375.0
G0 X65.430 Y92.402 E0.073651 F375.0
G0 X66.059 Y91.312 E0.073651 F375.0
G0 X66.506 Y90.135 E0.073651 F375.0
G0 X66.757 Y88.902 E0.073651 F375.0
G0 X66.808 Y87.645 E0.073651 F375.0
G0 X66.656 Y86.395 E0.073651 F375.0
G0 X66.306 Y85.187 E0.073651 F375.0
G0 X65.767 Y84.050 E0.073651 F375.0
G0 X65.052 Y83.014 E0.073651 F375.0
G0 X64.180 Y82.106 E0.073651 F375.0
G0 X63.174 Y81.350 E0.073651 F375.0
G0 X62.060 Y80.765 E0.073651 F375.0
G0 X60.866 Y80.367 E0.073651 F375.0
G0 X59.624 Y80.165 E0.073651 F375.0
G0 X58.365 Y80.165 E0.073651 F375.0
G0 X57.123 Y80.367 E0.073651 F375.0
G0 X55.929 Y80.765 E0.073651 F375.0
G0 X54.815 Y81.350 E0.073651 F375.0
G0 X54.314 Y81.726 E0.036639 F375.0
G1 E-1 F3000
G0 X56.895 Y95.819 E0.000000 F7500.0
G1 E1 F3000
G92 E0
G0 X57.686 Y96.014 E0.047651 F375.0
G0 X58.994 Y96.120 E0.076853 F375.0
G0 X60.303 Y96.014 E0.076853 F375.0
G0 X60.303 Y96.014 E0.000000 F375.0
G0 X61.578 Y95.700 E0.076853 F375.0
G0 X62.787 Y95.185 E0.076853 F375.0
G0 X63.897 Y94.483 E0.076853 F375.0
G0 X64.879 Y93.612 E0.076853 F375.0
G0 X65.710 Y92.595 E0.076853 F375.0
G0 X66.367 Y91.458 E0.076853 F375.0
G0 X66.832 Y90.230 E0.076853 F375.0
G0 X67.095 Y88.943 E0.076853 F375.0
G0 X67.148 Y87.631 E0.076853 F375.0
G0 X66.990 Y86.327 E0.076853 F375.0
G0 X66.624 Y85.066 E0.076853 F375.0
G0 X66.061 Y83.880 E0.076853 F375.0
G0 X65.315 Y82.799 E0.076853 F375.0
G0 X64.406 Y81.852 E0.076853 F375.0
G0 X63.356 Y81.063 E0.076853 F375.0
G0 X62.193 Y80.453 E0.076853 F375.0
G0 X60.947 Y80.037 E0.076853 F375.0
G0 X59.651 Y79.826 E0.076853 F375.0
G0 X58.338 Y79.826 E0.076853 F375.0
G0 X57.042 Y80.037 E0.076853 F375.0
G0 X55.796 Y80.453 E0.076853 F375.0
G0 X54.633 Y81.063 E0.076853 F375.0
G0 X53.982 Y81.552 E0.047651 F375.0
G1 E-1 F3000
G0 X56.658 Y96.110 E0.000000 F7500.0
G1 E1 F3000
G92 E0
G0 X57.631 Y96.350 E0.058663 F375.0
G0 X58.994 Y96.460 E0.080055 F375.0
G0 X60.358 Y96.350 E0.080055 F375.0
G0 X60.358 Y96.350 E0.000000 F375.0
G0 X61.686 Y96.022 E0.080055 F375.0
G0 X62.945 Y95.486 E0.080055 F375.0
G0 X64.101 Y94.755 E0.080055 F375.0
G0 X65.125 Y93.848 E0.080055 F375.0
G0 X65.990 Y92.788 E0.080055 F375.0
G0 X66.674 Y91.604 E0.080055 F375.0
G0 X67.159 Y90.325 E0.080055 F375.0
G0 X67.433 Y88.984 E0.080055 F375.0
G0 X67.488 Y87.617 E0.080055 F375.0
G0 X67.323 Y86.259 E0.080055 F375.0
G0 X66.942 Y84.946 E0.080055 F375.0
G0 X66.356 Y83.710 E0.080055 F375.0
G0 X65.579 Y82.584 E0.080055 F375.0
G0 X64.631 Y81.597 E0.080055 F375.0
G0 X63.537 Y80.776 E0.080055 F375.0
G0 X62.326 Y80.140 E0.080055 F375.0
G0 X61.029 Y79.707 E0.080055 F375.0
G0 X59.678 Y79.487 E0.080055 F375.0
G0 X58.311 Y79.487 E0.080055 F375.0
G0 X56.960 Y79.707 E0.080055 F375.0
G0 X55.663 Y80.140 E0.080055 F375.0
G0 X54.452 Y80.776 E0.080055 F375.0
G0 X53.650 Y81.378 E0.058663 F375.0
G1 E-1 F3000
G0 X56.361 Y96.386 E0.000000 F7500.0
G1 E1 F3000
G92 E0
G0 X57.576 Y96.685 E0.073286 F375.0
G0 X58.994 Y96.800 E0.083258 F375.0
G0 X60.413 Y96.685 E0.083258 F375.0
G0 X60.413 Y96.685 E0.000000 F375.0
G0 X61.794 Y96.345 E0.083258 F375.0
G0 X63.103 Y95.787 E0.083258 F375.0
G0 X64.305 Y95.027 E0.083258 F375.0
G0 X65.370 Y94.083 E0.083258 F375.0
